(.../stephan/eagle/ulp/pcb-gcode.ulp)
(Copyright 2005 - 2012 by John Johnson)
(See readme.txt for licensing terms.)
(This file generated from the board:)
(.../eagle/microgame/micro_game.brd)
(Current profile is .../stephan/eagle/ulp/profiles/mach.pp  )
(This file generated 17.06.15 19:20)
(Settings from pcb-machine.h)
(spindle on time = 3.0000)
(  Tool Size)
(0.1778  )
(spindle speed = 30000.0000)
(tool change at 0.0000  0.0000  25.4000 )
(feed rate xy = F508   )
(feed rate z  = F254   )
(Z Axis Settings)
(  High     Up        Down     Drill)
(20.0000 	8.0000  	-0.1778 	-0.8128 )
(Settings from pcb-defaults.h)
(isolate min = 0.0254)
(isolate max = 0.5080)
(isolate step = 0.1270)
(Generated top outlines, top drill, bottom outlines, bottom drill, )
(Unit of measure: mm)
(Metric Mode)
G21
(Absolute Coordinates)
G90
S30000
G00 Z20.0000 
G00 X0.0000  Y0.0000  
M03
G04 P3.000000
G00 Z8.0000  
G00 X1.0209  Y22.4743 
G01 Z-0.1778 F254   
G01 X-1.5607 Y24.4769 F508   
G01 X-1.6059 Y24.5081 
G01 X-1.6278 Y24.5289 
G01 X-1.6516 Y24.5474 
G01 X-1.6892 Y24.5874 
G01 X-4.0549 Y26.8410 
G01 X-4.0967 Y26.8766 
G01 X-4.1164 Y26.8995 
G01 X-4.1383 Y26.9203 
G01 X-4.1716 Y26.9639 
G01 X-6.2972 Y29.4453 
G01 X-6.3352 Y29.4849 
G01 X-6.3524 Y29.5097 
G01 X-6.3721 Y29.5327 
G01 X-6.4008 Y29.5794 
G01 X-8.2645 Y32.2631 
G01 X-8.2983 Y32.3063 
G01 X-8.3129 Y32.3327 
G01 X-8.3301 Y32.3575 
G01 X-8.3540 Y32.4070 
G01 X-9.9366 Y35.2654 
G01 X-9.9658 Y35.3118 
G01 X-9.9777 Y35.3396 
G01 X-9.9924 Y35.3660 
G01 X-10.0111 Y35.4176 
G01 X-11.2964 Y38.4215 
G01 X-11.3208 Y38.4707 
G01 X-11.3298 Y38.4995 
G01 X-11.3417 Y38.5273 
G01 X-11.3551 Y38.5805 
G01 X-12.3300 Y41.6990 
G01 X-12.3492 Y41.7503 
G01 X-12.3553 Y41.7799 
G01 X-12.3643 Y41.8088 
G01 X-12.3723 Y41.8631 
G01 X-13.0266 Y45.0642 
G01 X-13.0406 Y45.1173 
G01 X-13.0436 Y45.1473 
G01 X-13.0497 Y45.1769 
G01 X-13.0521 Y45.2317 
G01 X-13.3792 Y48.4826 
G01 X-13.3878 Y48.5368 
G01 X-13.3877 Y48.5671 
G01 X-13.3908 Y48.5971 
G01 X-13.3877 Y48.6519 
G01 X-13.3842 Y51.9192 
G01 X-13.3872 Y51.9740 
G01 X-13.3841 Y52.0041 
G01 X-13.3841 Y52.0343 
G01 X-13.3755 Y52.0884 
G01 X-13.0415 Y55.3387 
G01 X-13.0389 Y55.3935 
G01 X-13.0328 Y55.4231 
G01 X-13.0297 Y55.4531 
G01 X-13.0157 Y55.5062 
G01 X-12.3546 Y58.7059 
G01 X-12.3465 Y58.7602 
G01 X-12.3374 Y58.7890 
G01 X-12.3313 Y58.8186 
G01 X-12.3120 Y58.8699 
G01 X-11.3306 Y61.9864 
G01 X-11.3170 Y62.0395 
G01 X-11.3051 Y62.0673 
G01 X-11.2960 Y62.0961 
G01 X-11.2715 Y62.1452 
G01 X-9.9799 Y65.1464 
G01 X-9.9611 Y65.1979 
G01 X-9.9464 Y65.2243 
G01 X-9.9344 Y65.2521 
G01 X-9.9051 Y65.2984 
G01 X-8.3165 Y68.1536 
G01 X-8.2925 Y68.2029 
G01 X-8.2752 Y68.2277 
G01 X-8.2605 Y68.2541 
G01 X-8.2267 Y68.2973 
G01 X-6.3574 Y70.9770 
G01 X-6.3285 Y71.0237 
G01 X-6.3088 Y71.0466 
G01 X-6.2915 Y71.0714 
G01 X-6.2535 Y71.1109 
G01 X-4.1226 Y73.5878 
G01 X-4.0892 Y73.6313 
G01 X-4.0673 Y73.6521 
G01 X-4.0476 Y73.6750 
G01 X-4.0057 Y73.7105 
G01 X-1.6353 Y75.9591 
G01 X-1.5976 Y75.9990 
G01 X-1.5737 Y76.0175 
G01 X-1.5518 Y76.0383 
G01 X-1.5066 Y76.0693 
G01 X1.0684  Y78.0582 
G01 X1.0988  Y78.0859 
G01 X1.1355  Y78.1100 
G01 X1.1703  Y78.1369 
G01 X1.2064  Y78.1566 
G01 X2.0384  Y78.7037 
G01 X2.0868  Y78.7389 
G01 X2.1093  Y78.7503 
G01 X2.1304  Y78.7643 
G01 X2.1849  Y78.7889 
G01 X2.2382  Y78.8160 
G01 X2.2622  Y78.8238 
G01 X2.2853  Y78.8342 
G01 X2.3430  Y78.8500 
G01 X2.3998  Y78.8685 
G01 X2.4247  Y78.8725 
G01 X2.4491  Y78.8792 
G01 X2.5086  Y78.8857 
G01 X2.5676  Y78.8951 
G01 X2.5929  Y78.8951 
G01 X2.6180  Y78.8979 
G01 X2.6777  Y78.8951 
G01 X38.1737 Y78.8951 
G01 X38.3415 Y78.8685 
G01 X38.5031 Y78.8160 
G01 X38.6545 Y78.7389 
G01 X38.7920 Y78.6390 
G01 X38.9122 Y78.5188 
G01 X39.0120 Y78.3814 
G01 X39.0139 Y78.3777 
G01 X39.0892 Y78.2300 
G01 X39.1398 Y78.0742 
G01 X39.1417 Y78.0684 
G01 X39.1683 Y77.9006 
G01 X39.1683 Y77.7306 
G01 X39.1417 Y77.5628 
G01 X39.0892 Y77.4012 
G01 X39.0120 Y77.2498 
G01 X38.9122 Y77.1124 
G01 X38.8194 Y77.0196 
G01 X38.7920 Y76.9922 
G01 X33.0855 Y71.2857 
G01 X32.9928 Y71.1930 
G01 X32.8553 Y71.0931 
G01 X32.7039 Y71.0160 
G01 X32.5423 Y70.9635 
G01 X32.3745 Y70.9369 
G01 X30.7934 Y70.9369 
G01 X30.7509 Y70.9336 
G01 X30.7085 Y70.9369 
G01 X30.6660 Y70.9369 
G01 X30.6240 Y70.9436 
G01 X30.5816 Y70.9469 
G01 X30.5402 Y70.9568 
G01 X30.4982 Y70.9635 
G01 X30.4577 Y70.9766 
G01 X30.4163 Y70.9866 
G01 X30.3770 Y71.0028 
G01 X30.3366 Y71.0160 
G01 X30.2986 Y71.0353 
G01 X29.9694 Y71.1717 
G01 X26.2106 Y71.1717 
G01 X25.8792 Y71.0344 
G01 X25.6256 Y70.7808 
G01 X25.4883 Y70.4494 
G01 X25.4883 Y68.2664 
G01 X25.4617 Y68.0986 
G01 X25.4092 Y67.9370 
G01 X25.3321 Y67.7856 
G01 X25.2322 Y67.6482 
G01 X25.1120 Y67.5280 
G01 X24.9746 Y67.4281 
G01 X24.8232 Y67.3510 
G01 X24.6616 Y67.2985 
G01 X24.4938 Y67.2719 
G01 X23.8842 Y67.2719 
G01 X23.4094 Y67.1447 
G01 X22.9837 Y66.8989 
G01 X16.8326 Y60.7478 
G01 X16.7124 Y60.6276 
G01 X16.7098 Y60.6258 
G01 X16.5750 Y60.5278 
G01 X16.4273 Y60.4525 
G01 X16.4236 Y60.4506 
G01 X16.4178 Y60.4487 
G01 X16.2620 Y60.3981 
G01 X16.1060 Y60.3734 
G01 X16.0942 Y60.3715 
G01 X15.9242 Y60.3715 
G01 X15.7564 Y60.3981 
G01 X15.5948 Y60.4506 
G01 X15.4434 Y60.5278 
G01 X15.3059 Y60.6276 
G01 X15.1858 Y60.7478 
G01 X15.1839 Y60.7504 
G01 X15.0859 Y60.8852 
G01 X15.0323 Y60.9905 
G01 X14.9043 Y60.9905 
G01 X14.9043 Y60.8473 
G01 X14.8869 Y60.8053 
G01 X14.8547 Y60.7731 
G01 X14.8127 Y60.7557 
G01 X11.3673 Y60.7557 
G01 X11.3253 Y60.7731 
G01 X11.2931 Y60.8053 
G01 X11.2757 Y60.8473 
G01 X11.2757 Y60.9905 
G01 X11.2503 Y60.9905 
G01 X11.2503 Y60.8590 
G01 X11.2537 Y60.8373 
G01 X11.2605 Y60.8164 
G01 X11.2705 Y60.7968 
G01 X11.2834 Y60.7790 
G01 X11.2990 Y60.7634 
G01 X11.3168 Y60.7505 
G01 X11.3364 Y60.7405 
G01 X11.3573 Y60.7337 
G01 X11.3790 Y60.7303 
G01 X12.8880 Y60.7303 
G01 X12.9304 Y60.7336 
G01 X12.9728 Y60.7303 
G01 X13.0154 Y60.7303 
G01 X13.0574 Y60.7236 
G01 X13.0998 Y60.7203 
G01 X13.1412 Y60.7104 
G01 X13.1832 Y60.7037 
G01 X13.2236 Y60.6906 
G01 X13.2650 Y60.6806 
G01 X13.3043 Y60.6643 
G01 X13.3448 Y60.6512 
G01 X13.3827 Y60.6319 
G01 X13.4220 Y60.6156 
G01 X13.4583 Y60.5934 
G01 X13.4962 Y60.5741 
G01 X13.5306 Y60.5491 
G01 X13.5669 Y60.5268 
G01 X13.5992 Y60.4992 
G01 X13.6336 Y60.4742 
G01 X13.6637 Y60.4441 
G01 X13.6961 Y60.4165 
G01 X13.7237 Y60.3841 
G01 X13.7538 Y60.3540 
G01 X13.7788 Y60.3196 
G01 X13.8064 Y60.2873 
G01 X13.8287 Y60.2510 
G01 X13.8537 Y60.2166 
G01 X13.8730 Y60.1787 
G01 X13.8952 Y60.1424 
G01 X13.9115 Y60.1031 
G01 X13.9308 Y60.0652 
G01 X13.9440 Y60.0247 
G01 X13.9602 Y59.9854 
G01 X13.9702 Y59.9440 
G01 X13.9833 Y59.9036 
G01 X13.9900 Y59.8616 
G01 X13.9999 Y59.8202 
G01 X14.0032 Y59.7778 
G01 X14.0099 Y59.7358 
G01 X14.0099 Y59.6932 
G01 X14.0132 Y59.6508 
G01 X14.0099 Y59.6084 
G01 X14.0099 Y59.5658 
G01 X14.0032 Y59.5238 
G01 X13.9999 Y59.4814 
G01 X13.9900 Y59.4400 
G01 X13.9833 Y59.3980 
G01 X13.9702 Y59.3576 
G01 X13.9602 Y59.3162 
G01 X13.9440 Y59.2769 
G01 X13.9308 Y59.2364 
G01 X13.9115 Y59.1985 
G01 X13.8083 Y58.9494 
G01 X13.8083 Y56.1906 
G01 X13.9456 Y55.8592 
G01 X14.1992 Y55.6056 
G01 X14.5306 Y55.4683 
G01 X18.2894 Y55.4683 
G01 X18.6208 Y55.6056 
G01 X18.8744 Y55.8592 
G01 X19.0117 Y56.1906 
G01 X19.0117 Y57.2843 
G01 X19.0364 Y57.4403 
G01 X19.0383 Y57.4521 
G01 X19.0402 Y57.4579 
G01 X19.0908 Y57.6137 
G01 X19.1660 Y57.7614 
G01 X19.1679 Y57.7651 
G01 X19.2678 Y57.9026 
G01 X20.2055 Y58.8404 
G01 X20.3430 Y58.9402 
G01 X20.4907 Y59.0155 
G01 X20.4944 Y59.0174 
G01 X20.5002 Y59.0193 
G01 X20.6560 Y59.0699 
G01 X20.8120 Y59.0946 
G01 X20.8238 Y59.0965 
G01 X20.9938 Y59.0965 
G01 X21.1616 Y59.0699 
G01 X21.3232 Y59.0174 
G01 X21.4746 Y58.9402 
G01 X21.6120 Y58.8404 
G01 X21.7322 Y58.7202 
G01 X21.8321 Y58.5827 
G01 X21.9073 Y58.4350 
G01 X21.9092 Y58.4314 
G01 X21.9111 Y58.4256 
G01 X21.9617 Y58.2698 
G01 X21.9864 Y58.1138 
G01 X21.9883 Y58.1019 
G01 X21.9883 Y55.9906 
G01 X22.1256 Y55.6592 
G01 X22.3792 Y55.4056 
G01 X22.7106 Y55.2683 
G01 X26.4694 Y55.2683 
G01 X26.8008 Y55.4056 
G01 X27.0544 Y55.6592 
G01 X27.1917 Y55.9906 
G01 X27.1917 Y58.7494 
G01 X27.0057 Y59.1985 
G01 X26.9863 Y59.2364 
G01 X26.9732 Y59.2769 
G01 X26.9569 Y59.3162 
G01 X26.9470 Y59.3576 
G01 X26.9338 Y59.3980 
G01 X26.9272 Y59.4400 
G01 X26.9172 Y59.4814 
G01 X26.9139 Y59.5238 
G01 X26.9073 Y59.5658 
G01 X26.9073 Y59.6084 
G01 X26.9039 Y59.6508 
G01 X26.9073 Y59.6932 
G01 X26.9073 Y59.7358 
G01 X26.9139 Y59.7778 
G01 X26.9172 Y59.8202 
G01 X26.9272 Y59.8616 
G01 X26.9338 Y59.9036 
G01 X26.9470 Y59.9440 
G01 X26.9569 Y59.9854 
G01 X26.9732 Y60.0247 
G01 X26.9863 Y60.0652 
G01 X27.0057 Y60.1031 
G01 X27.0105 Y60.1147 
G01 X27.0105 Y60.7557 
G01 X26.3673 Y60.7557 
G01 X26.3253 Y60.7731 
G01 X26.2931 Y60.8053 
G01 X26.2757 Y60.8473 
G01 X26.2757 Y60.9905 
G01 X26.2503 Y60.9905 
G01 X26.2503 Y60.8590 
G01 X26.2537 Y60.8373 
G01 X26.2646 Y60.8040 
G01 X26.2781 Y60.7188 
G01 X26.2911 Y60.6362 
G01 X26.2911 Y60.5503 
G01 X26.2911 Y60.4663 
G01 X26.2775 Y60.3800 
G01 X26.2646 Y60.2984 
G01 X26.2400 Y60.2228 
G01 X26.2121 Y60.1368 
G01 X26.1815 Y60.0768 
G01 X26.1349 Y59.9854 
G01 X26.0871 Y59.9197 
G01 X26.0351 Y59.8480 
G01 X25.9944 Y59.8073 
G01 X25.9149 Y59.7278 
G01 X25.8989 Y59.7162 
G01 X25.7775 Y59.6279 
G01 X25.7129 Y59.5950 
G01 X25.6261 Y59.5508 
G01 X25.5505 Y59.5262 
G01 X25.4645 Y59.4983 
G01 X25.3792 Y59.4848 
G01 X25.2966 Y59.4717 
G01 X25.2107 Y59.4717 
G01 X25.1267 Y59.4717 
G01 X23.3581 Y59.4717 
G01 X23.1902 Y59.4983 
G01 X23.0286 Y59.5508 
G01 X22.8773 Y59.6279 
G01 X22.7398 Y59.7278 
G01 X22.6196 Y59.8479 
G01 X22.5198 Y59.9854 
G01 X22.4426 Y60.1368 
G01 X22.3901 Y60.2984 
G01 X22.3635 Y60.4662 
G01 X22.3635 Y60.6362 
G01 X22.3901 Y60.8040 
G01 X22.4426 Y60.9656 
G01 X22.5198 Y61.1170 
G01 X22.6196 Y61.2544 
G01 X22.7398 Y61.3746 
G01 X24.3474 Y62.9822 
G01 X24.4676 Y63.1024 
G01 X24.6050 Y63.2022 
G01 X24.7564 Y63.2794 
G01 X24.9180 Y63.3319 
G01 X25.0858 Y63.3585 
G01 X25.2558 Y63.3585 
G01 X25.4236 Y63.3319 
G01 X25.5852 Y63.2794 
G01 X25.7366 Y63.2022 
G01 X25.8091 Y63.1495 
G01 X26.2757 Y63.1495 
G01 X26.2757 Y63.2927 
G01 X26.2931 Y63.3347 
G01 X26.3253 Y63.3669 
G01 X26.3673 Y63.3843 
G01 X29.8127 Y63.3843 
G01 X29.8547 Y63.3669 
G01 X29.8869 Y63.3347 
G01 X29.9043 Y63.2927 
G01 X29.9043 Y63.1495 
G01 X30.1768 Y63.1495 
G01 X30.1858 Y63.1618 
G01 X30.3059 Y63.2820 
G01 X30.4434 Y63.3819 
G01 X30.5948 Y63.4590 
G01 X30.7564 Y63.5115 
G01 X30.9242 Y63.5381 
G01 X36.4408 Y63.5381 
G01 X36.4462 Y63.5396 
G01 X36.5026 Y63.5455 
G01 X36.5586 Y63.5544 
G01 X36.5870 Y63.5544 
G01 X36.6152 Y63.5573 
G01 X36.6719 Y63.5544 
G01 X36.7286 Y63.5544 
G01 X36.7566 Y63.5499 
G01 X36.7849 Y63.5484 
G01 X36.8404 Y63.5366 
G01 X36.8964 Y63.5278 
G01 X36.9233 Y63.5190 
G01 X36.9511 Y63.5131 
G01 X37.0041 Y63.4928 
G01 X37.0580 Y63.4753 
G01 X37.0833 Y63.4624 
G01 X37.1098 Y63.4522 
G01 X37.1589 Y63.4239 
G01 X37.2094 Y63.3981 
G01 X37.2323 Y63.3815 
G01 X37.2569 Y63.3673 
G01 X37.3010 Y63.3316 
G01 X37.3468 Y63.2983 
G01 X37.3669 Y63.2782 
G01 X37.3890 Y63.2603 
G01 X37.4269 Y63.2182 
G01 X37.4670 Y63.1781 
G01 X37.4837 Y63.1552 
G01 X37.5027 Y63.1341 
G01 X37.5336 Y63.0865 
G01 X37.5669 Y63.0406 
G01 X37.5797 Y63.0154 
G01 X37.5952 Y62.9916 
G01 X37.6183 Y62.9398 
G01 X37.6440 Y62.8892 
G01 X37.6528 Y62.8623 
G01 X37.6643 Y62.8363 
G01 X37.6790 Y62.7816 
G01 X37.6965 Y62.7276 
G01 X37.7010 Y62.6996 
G01 X37.7083 Y62.6722 
G01 X37.7142 Y62.6158 
G01 X37.7231 Y62.5598 
G01 X37.7231 Y62.5314 
G01 X37.7261 Y62.5032 
G01 X37.7231 Y62.4466 
G01 X37.7231 Y60.0405 
G01 X37.6965 Y59.8726 
G01 X37.6703 Y59.7920 
G01 X37.6440 Y59.7111 
G01 X37.5716 Y59.5690 
G01 X37.5669 Y59.5596 
G01 X37.5027 Y59.4713 
G01 X37.4670 Y59.4222 
G01 X37.4583 Y59.4135 
G01 X37.3468 Y59.3020 
G01 X37.1256 Y59.0808 
G01 X36.9883 Y58.7494 
G01 X36.9883 Y55.9906 
G01 X37.1256 Y55.6592 
G01 X37.3792 Y55.4056 
G01 X37.7106 Y55.2683 
G01 X41.5886 Y55.2683 
G01 X41.7564 Y55.2417 
G01 X41.9180 Y55.1892 
G01 X42.0694 Y55.1121 
G01 X42.2068 Y55.0122 
G01 X42.3270 Y54.8920 
G01 X42.4269 Y54.7546 
G01 X42.5040 Y54.6032 
G01 X42.5565 Y54.4416 
G01 X42.5831 Y54.2738 
G01 X42.5831 Y52.6856 
G01 X42.5565 Y52.5178 
G01 X42.5174 Y52.3975 
G01 X42.5040 Y52.3562 
G01 X42.4269 Y52.2048 
G01 X42.3578 Y52.1098 
G01 X42.3270 Y52.0673 
G01 X42.2068 Y51.9472 
G01 X42.1298 Y51.8912 
G01 X42.0694 Y51.8473 
G01 X41.9180 Y51.7702 
G01 X41.7564 Y51.7176 
G01 X41.6558 Y51.7017 
G01 X41.5886 Y51.6911 
G01 X41.4186 Y51.6911 
G01 X41.3010 Y51.7097 
G01 X40.6695 Y51.7097 
G01 X40.6695 Y51.6843 
G01 X41.3127 Y51.6843 
G01 X41.3547 Y51.6669 
G01 X41.3869 Y51.6347 
G01 X41.4043 Y51.5927 
G01 X41.4043 Y49.1473 
G01 X41.3869 Y49.1053 
G01 X41.3547 Y49.0731 
G01 X41.3127 Y49.0557 
G01 X37.8673 Y49.0557 
G01 X37.8253 Y49.0731 
G01 X37.7931 Y49.1053 
G01 X37.7757 Y49.1473 
G01 X37.7757 Y49.2905 
G01 X37.7503 Y49.2905 
G01 X37.7503 Y49.1590 
G01 X37.7537 Y49.1373 
G01 X37.7605 Y49.1164 
G01 X37.7786 Y49.0808 
G01 X37.8110 Y48.9813 
G01 X37.8312 Y48.9193 
G01 X37.8458 Y48.8265 
G01 X37.8578 Y48.7514 
G01 X37.8578 Y48.6660 
G01 X37.8578 Y48.5815 
G01 X37.8456 Y48.5049 
G01 X37.8312 Y48.4137 
G01 X37.8052 Y48.3337 
G01 X37.7787 Y48.2521 
G01 X37.7406 Y48.1773 
G01 X37.7016 Y48.1007 
G01 X37.6669 Y48.0530 
G01 X37.6017 Y47.9632 
G01 X37.5533 Y47.9148 
G01 X37.4816 Y47.8430 
G01 X37.4134 Y47.7935 
G01 X37.3441 Y47.7432 
G01 X37.2444 Y47.6923 
G01 X37.1927 Y47.6660 
G01 X37.0932 Y47.6337 
G01 X37.0311 Y47.6135 
G01 X36.9384 Y47.5988 
G01 X36.8633 Y47.5869 
G01 X36.7779 Y47.5869 
G01 X36.6934 Y47.5869 
G01 X30.6726 Y47.5869 
G01 X30.6302 Y47.5836 
G01 X30.5878 Y47.5869 
G01 X30.5453 Y47.5869 
G01 X30.5032 Y47.5936 
G01 X30.4608 Y47.5969 
G01 X30.4195 Y47.6068 
G01 X30.3774 Y47.6135 
G01 X30.3370 Y47.6266 
G01 X30.2956 Y47.6366 
G01 X30.2563 Y47.6528 
G01 X30.2158 Y47.6660 
G01 X30.1779 Y47.6853 
G01 X29.9694 Y47.7717 
G01 X27.5533 Y47.7717 
G01 X27.4674 Y47.7717 
G01 X27.3834 Y47.7717 
G01 X27.2963 Y47.7855 
G01 X27.2156 Y47.7983 
G01 X27.1279 Y47.8268 
G01 X27.0540 Y47.8508 
G01 X26.9634 Y47.8969 
G01 X26.9026 Y47.9279 
G01 X26.7789 Y48.0178 
G01 X26.7651 Y48.0278 
G01 X26.6844 Y48.1086 
G01 X26.6450 Y48.1480 
G01 X26.5913 Y48.2219 
G01 X26.5451 Y48.2854 
G01 X26.4972 Y48.3793 
G01 X26.4679 Y48.4368 
G01 X26.4394 Y48.5247 
G01 X26.4154 Y48.5984 
G01 X26.4020 Y48.6833 
G01 X26.3889 Y48.7662 
G01 X26.3889 Y48.8522 
G01 X26.3889 Y48.9362 
G01 X26.4027 Y49.0233 
G01 X26.4154 Y49.1040 
G01 X26.4263 Y49.1373 
G01 X26.4297 Y49.1590 
G01 X26.4297 Y49.2905 
G01 X26.4043 Y49.2905 
G01 X26.4043 Y49.1473 
G01 X26.3869 Y49.1053 
G01 X26.3547 Y49.0731 
G01 X26.3127 Y49.0557 
G01 X25.6695 Y49.0557 
G01 X25.6695 Y48.4148 
G01 X25.6743 Y48.4031 
G01 X25.6937 Y48.3652 
G01 X25.7068 Y48.3247 
G01 X25.7231 Y48.2854 
G01 X25.7330 Y48.2440 
G01 X25.7462 Y48.2036 
G01 X25.7528 Y48.1616 
G01 X25.7628 Y48.1202 
G01 X25.7661 Y48.0778 
G01 X25.7727 Y48.0358 
G01 X25.7727 Y47.9932 
G01 X25.7761 Y47.9508 
G01 X25.7727 Y47.9084 
G01 X25.7727 Y47.8658 
G01 X25.7661 Y47.8238 
G01 X25.7628 Y47.7814 
G01 X25.7528 Y47.7400 
G01 X25.7462 Y47.6980 
G01 X25.7330 Y47.6576 
G01 X25.7231 Y47.6162 
G01 X25.7068 Y47.5769 
G01 X25.6937 Y47.5364 
G01 X25.6743 Y47.4985 
G01 X25.4883 Y47.0494 
G01 X25.4883 Y44.2906 
G01 X25.6256 Y43.9592 
G01 X25.8792 Y43.7056 
G01 X26.2106 Y43.5683 
G01 X29.9694 Y43.5683 
G01 X30.4194 Y43.7547 
G01 X30.4573 Y43.7740 
G01 X30.4977 Y43.7872 
G01 X30.5370 Y43.8034 
G01 X30.5784 Y43.8134 
G01 X30.6189 Y43.8265 
G01 X30.6609 Y43.8332 
G01 X30.7023 Y43.8431 
G01 X30.7447 Y43.8464 
G01 X30.7867 Y43.8531 
G01 X30.8292 Y43.8531 
G01 X30.8717 Y43.8564 
G01 X30.9141 Y43.8531 
G01 X43.4258 Y43.8531 
G01 X43.9006 Y43.9803 
G01 X44.3263 Y44.2261 
G01 X44.7143 Y44.6141 
G01 X45.1450 Y45.0448 
G01 X45.2652 Y45.1650 
G01 X45.3195 Y45.2044 
G01 X45.4026 Y45.2648 
G01 X45.5540 Y45.3420 
G01 X45.6378 Y45.3692 
G01 X45.7156 Y45.3945 
G01 X45.8834 Y45.4211 
G01 X46.0534 Y45.4211 
G01 X46.2212 Y45.3945 
G01 X46.3828 Y45.3420 
G01 X46.4862 Y45.2893 
G01 X46.5342 Y45.2648 
G01 X46.6716 Y45.1650 
G01 X46.7918 Y45.0448 
G01 X46.8313 Y44.9905 
G01 X46.8917 Y44.9074 
G01 X46.9688 Y44.7559 
G01 X46.9960 Y44.6722 
G01 X47.0213 Y44.5944 
G01 X47.0479 Y44.4265 
G01 X47.0479 Y44.4042 
G01 X47.1744 Y43.9322 
G01 X47.1974 Y43.8967 
G01 X47.2090 Y43.8708 
G01 X47.2232 Y43.8462 
G01 X47.2435 Y43.7932 
G01 X47.2666 Y43.7415 
G01 X47.2739 Y43.7141 
G01 X47.2841 Y43.6876 
G01 X47.2959 Y43.6321 
G01 X47.3105 Y43.5773 
G01 X47.3135 Y43.5491 
G01 X47.3194 Y43.5213 
G01 X47.3224 Y43.4647 
G01 X47.3283 Y43.4083 
G01 X47.3268 Y43.3800 
G01 X47.3283 Y43.3517 
G01 X47.3224 Y43.2953 
G01 X47.3194 Y43.2387 
G01 X47.3135 Y43.2109 
G01 X47.3105 Y43.1827 
G01 X47.2959 Y43.1279 
G01 X47.2841 Y43.0725 
G01 X47.2739 Y43.0460 
G01 X47.2666 Y43.0185 
G01 X47.2435 Y42.9668 
G01 X47.2232 Y42.9138 
G01 X47.2090 Y42.8893 
G01 X47.1974 Y42.8633 
G01 X47.1744 Y42.8278 
G01 X47.0479 Y42.3558 
G01 X47.0479 Y41.8642 
G01 X47.1744 Y41.3922 
G01 X47.1974 Y41.3567 
G01 X47.2090 Y41.3308 
G01 X47.2232 Y41.3062 
G01 X47.2435 Y41.2532 
G01 X47.2666 Y41.2015 
G01 X47.2739 Y41.1741 
G01 X47.2841 Y41.1476 
G01 X47.2959 Y41.0921 
G01 X47.3105 Y41.0373 
G01 X47.3135 Y41.0091 
G01 X47.3194 Y40.9813 
G01 X47.3224 Y40.9247 
G01 X47.3283 Y40.8683 
G01 X47.3268 Y40.8400 
G01 X47.3283 Y40.8117 
G01 X47.3224 Y40.7553 
G01 X47.3194 Y40.6987 
G01 X47.3135 Y40.6709 
G01 X47.3105 Y40.6427 
G01 X47.2959 Y40.5879 
G01 X47.2841 Y40.5325 
G01 X47.2739 Y40.5060 
G01 X47.2666 Y40.4785 
G01 X47.2435 Y40.4268 
G01 X47.2232 Y40.3738 
G01 X47.2090 Y40.3493 
G01 X47.1974 Y40.3233 
G01 X47.1744 Y40.2878 
G01 X47.0479 Y39.8158 
G01 X47.0479 Y39.3242 
G01 X47.1744 Y38.8522 
G01 X47.1974 Y38.8167 
G01 X47.2090 Y38.7908 
G01 X47.2232 Y38.7662 
G01 X47.2435 Y38.7132 
G01 X47.2666 Y38.6615 
G01 X47.2739 Y38.6341 
G01 X47.2841 Y38.6076 
G01 X47.2959 Y38.5521 
G01 X47.3105 Y38.4973 
G01 X47.3135 Y38.4691 
G01 X47.3194 Y38.4413 
G01 X47.3224 Y38.3847 
G01 X47.3283 Y38.3283 
G01 X47.3268 Y38.3000 
G01 X47.3283 Y38.2717 
G01 X47.3224 Y38.2153 
G01 X47.3194 Y38.1587 
G01 X47.3135 Y38.1309 
G01 X47.3105 Y38.1027 
G01 X47.2959 Y38.0479 
G01 X47.2841 Y37.9925 
G01 X47.2739 Y37.9660 
G01 X47.2666 Y37.9385 
G01 X47.2435 Y37.8868 
G01 X47.2232 Y37.8338 
G01 X47.2090 Y37.8093 
G01 X47.1974 Y37.7833 
G01 X47.1744 Y37.7478 
G01 X47.0479 Y37.2758 
G01 X47.0479 Y36.7842 
G01 X47.1751 Y36.3094 
G01 X47.4209 Y35.8837 
G01 X47.7685 Y35.5361 
G01 X48.1942 Y35.2903 
G01 X48.6690 Y35.1631 
G01 X51.0910 Y35.1631 
G01 X51.5658 Y35.2903 
G01 X51.9915 Y35.5361 
G01 X52.2605 Y35.8051 
G01 X52.2605 Y48.4149 
G01 X52.2292 Y48.4462 
G01 X52.1871 Y48.4841 
G01 X52.1692 Y48.5062 
G01 X52.1491 Y48.5262 
G01 X52.1158 Y48.5721 
G01 X52.0801 Y48.6162 
G01 X52.0660 Y48.6408 
G01 X52.0616 Y48.6468 
G01 X52.0579 Y48.6505 
G01 X48.8298 Y48.6505 
G01 X48.6620 Y48.6771 
G01 X48.5004 Y48.7296 
G01 X48.3490 Y48.8067 
G01 X48.2116 Y48.9066 
G01 X48.0914 Y49.0268 
G01 X47.9915 Y49.1642 
G01 X47.9144 Y49.3156 
G01 X47.8619 Y49.4772 
G01 X47.8353 Y49.6450 
G01 X47.8353 Y49.8150 
G01 X47.8619 Y49.9828 
G01 X47.9144 Y50.1444 
G01 X47.9915 Y50.2958 
G01 X48.0914 Y50.4332 
G01 X48.2116 Y50.5534 
G01 X48.3490 Y50.6533 
G01 X48.5004 Y50.7304 
G01 X48.6620 Y50.7829 
G01 X48.8298 Y50.8095 
G01 X52.5900 Y50.8095 
G01 X52.7578 Y50.7829 
G01 X52.9194 Y50.7304 
G01 X53.0708 Y50.6533 
G01 X53.2082 Y50.5534 
G01 X53.3744 Y50.3873 
G01 X53.4423 Y50.3765 
G01 X53.6039 Y50.3240 
G01 X53.7049 Y50.2726 
G01 X53.7553 Y50.2469 
G01 X53.8928 Y50.1470 
G01 X54.2718 Y49.7680 
G01 X54.3920 Y49.6478 
G01 X54.4315 Y49.5935 
G01 X54.4919 Y49.5103 
G01 X54.5690 Y49.3589 
G01 X54.5962 Y49.2752 
G01 X54.6215 Y49.1974 
G01 X54.6481 Y49.0295 
G01 X54.6481 Y48.3940 
G01 X54.6511 Y48.3374 
G01 X54.6481 Y48.3092 
G01 X54.6481 Y48.2808 
G01 X54.6392 Y48.2248 
G01 X54.6333 Y48.1684 
G01 X54.6260 Y48.1410 
G01 X54.6215 Y48.1129 
G01 X54.6040 Y48.0590 
G01 X54.5893 Y48.0043 
G01 X54.5778 Y47.9783 
G01 X54.5690 Y47.9513 
G01 X54.5433 Y47.9008 
G01 X54.5202 Y47.8490 
G01 X54.5048 Y47.8252 
G01 X54.4919 Y47.7999 
G01 X54.4586 Y47.7541 
G01 X54.4277 Y47.7065 
G01 X54.4195 Y47.6975 
G01 X54.4195 Y36.5225 
G01 X54.4277 Y36.5135 
G01 X54.4586 Y36.4659 
G01 X54.4919 Y36.4201 
G01 X54.5048 Y36.3948 
G01 X54.5202 Y36.3710 
G01 X54.5433 Y36.3192 
G01 X54.5690 Y36.2687 
G01 X54.5778 Y36.2417 
G01 X54.5893 Y36.2157 
G01 X54.6040 Y36.1610 
G01 X54.6215 Y36.1071 
G01 X54.6260 Y36.0790 
G01 X54.6333 Y36.0516 
G01 X54.6392 Y35.9952 
G01 X54.6481 Y35.9392 
G01 X54.6481 Y35.9108 
G01 X54.6511 Y35.8826 
G01 X54.6481 Y35.8260 
G01 X54.6481 Y29.5992 
G01 X54.7753 Y29.1244 
G01 X55.0211 Y28.6987 
G01 X58.5437 Y25.1761 
G01 X58.9694 Y24.9303 
G01 X59.4442 Y24.8031 
G01 X70.7308 Y24.8031 
G01 X71.2056 Y24.9303 
G01 X71.6313 Y25.1761 
G01 X86.0757 Y39.6205 
G01 X86.1959 Y39.7407 
G01 X86.5839 Y40.1287 
G01 X86.8297 Y40.5544 
G01 X86.9569 Y41.0292 
G01 X86.9569 Y42.6057 
G01 X86.9536 Y42.6481 
G01 X86.9569 Y42.6905 
G01 X86.9569 Y42.7331 
G01 X86.9636 Y42.7751 
G01 X86.9669 Y42.8175 
G01 X86.9768 Y42.8589 
G01 X86.9835 Y42.9009 
G01 X86.9966 Y42.9414 
G01 X87.0066 Y42.9828 
G01 X87.0228 Y43.0220 
G01 X87.0360 Y43.0625 
G01 X87.0553 Y43.1004 
G01 X87.0716 Y43.1397 
G01 X87.0938 Y43.1760 
G01 X87.1131 Y43.2139 
G01 X87.1381 Y43.2483 
G01 X87.1604 Y43.2846 
G01 X87.1880 Y43.3170 
G01 X87.2130 Y43.3514 
G01 X87.2431 Y43.3815 
G01 X87.2707 Y43.4138 
G01 X87.3031 Y43.4415 
G01 X87.3332 Y43.4715 
G01 X87.3676 Y43.4965 
G01 X87.3999 Y43.5242 
G01 X87.4362 Y43.5464 
G01 X87.4706 Y43.5714 
G01 X87.7444 Y43.8442 
G01 X87.8817 Y44.1756 
G01 X87.8817 Y46.9344 
G01 X87.7444 Y47.2658 
G01 X87.4908 Y47.5194 
G01 X87.1594 Y47.6567 
G01 X83.4006 Y47.6567 
G01 X83.0692 Y47.5194 
G01 X82.8156 Y47.2658 
G01 X82.6783 Y46.9344 
G01 X82.6783 Y44.1756 
G01 X82.8156 Y43.8442 
G01 X82.9670 Y43.6928 
G01 X83.0669 Y43.5553 
G01 X83.1440 Y43.4039 
G01 X83.1965 Y43.2423 
G01 X83.2231 Y43.0745 
G01 X83.2231 Y42.4105 
G01 X83.1965 Y42.2427 
G01 X83.1440 Y42.0810 
G01 X83.0669 Y41.9297 
G01 X82.9670 Y41.7922 
G01 X70.0880 Y28.9132 
G01 X69.9678 Y28.7930 
G01 X69.8303 Y28.6931 
G01 X69.6789 Y28.6160 
G01 X69.5173 Y28.5635 
G01 X69.3495 Y28.5369 
G01 X68.4180 Y28.5369 
G01 X68.3898 Y28.5339 
G01 X68.3331 Y28.5369 
G01 X68.2765 Y28.5369 
G01 X68.2484 Y28.5413 
G01 X68.2201 Y28.5428 
G01 X68.1646 Y28.5546 
G01 X68.1087 Y28.5635 
G01 X68.0817 Y28.5723 
G01 X68.0539 Y28.5782 
G01 X68.0010 Y28.5985 
G01 X67.9471 Y28.6160 
G01 X67.9217 Y28.6289 
G01 X67.8952 Y28.6391 
G01 X67.8462 Y28.6674 
G01 X67.7957 Y28.6931 
G01 X67.7727 Y28.7098 
G01 X67.7481 Y28.7240 
G01 X67.7040 Y28.7597 
G01 X67.6582 Y28.7930 
G01 X67.6381 Y28.8131 
G01 X67.6160 Y28.8310 
G01 X67.5781 Y28.8731 
G01 X67.5380 Y28.9132 
G01 X67.5213 Y28.9361 
G01 X67.5023 Y28.9572 
G01 X67.4715 Y29.0048 
G01 X67.4382 Y29.0506 
G01 X67.4253 Y29.0759 
G01 X67.4098 Y29.0997 
G01 X67.3868 Y29.1515 
G01 X67.3610 Y29.2020 
G01 X67.3523 Y29.2290 
G01 X67.3407 Y29.2550 
G01 X67.3260 Y29.3097 
G01 X67.3085 Y29.3636 
G01 X67.3041 Y29.3917 
G01 X67.2967 Y29.4191 
G01 X67.2908 Y29.4755 
G01 X67.2819 Y29.5314 
G01 X67.2819 Y29.5598 
G01 X67.2790 Y29.5881 
G01 X67.2819 Y29.6447 
G01 X67.2819 Y29.7014 
G01 X67.2864 Y29.7294 
G01 X67.2879 Y29.7578 
G01 X67.2997 Y29.8132 
G01 X67.3085 Y29.8692 
G01 X67.3173 Y29.8962 
G01 X67.3232 Y29.9240 
G01 X67.3435 Y29.9769 
G01 X67.3610 Y30.0308 
G01 X67.3739 Y30.0561 
G01 X67.3841 Y30.0826 
G01 X67.4124 Y30.1317 
G01 X67.4382 Y30.1822 
G01 X67.4549 Y30.2052 
G01 X67.4691 Y30.2297 
G01 X67.5047 Y30.2738 
G01 X67.5380 Y30.3196 
G01 X67.5581 Y30.3397 
G01 X67.5760 Y30.3618 
G01 X67.6181 Y30.3997 
G01 X67.6582 Y30.4398 
G01 X67.6812 Y30.4565 
G01 X67.7023 Y30.4755 
G01 X67.7498 Y30.5064 
G01 X67.7957 Y30.5397 
G01 X67.8210 Y30.5526 
G01 X67.8448 Y30.5680 
G01 X67.8966 Y30.5911 
G01 X67.9471 Y30.6168 
G01 X67.9741 Y30.6256 
G01 X68.0000 Y30.6371 
G01 X68.0306 Y30.6453 
G01 X68.4563 Y30.8911 
G01 X71.4707 Y33.9055 
G01 X71.9789 Y34.4137 
G01 X72.2247 Y34.8394 
G01 X72.3519 Y35.3142 
G01 X72.3519 Y56.0145 
G01 X72.3785 Y56.1823 
G01 X72.4310 Y56.3439 
G01 X72.5081 Y56.4953 
G01 X72.6080 Y56.6328 
G01 X72.7407 Y56.7655 
G01 X73.2489 Y57.2737 
G01 X73.4947 Y57.6994 
G01 X73.6219 Y58.1742 
G01 X73.6219 Y59.6611 
G01 X73.6186 Y59.7035 
G01 X73.6219 Y59.7459 
G01 X73.6219 Y59.7885 
G01 X73.6286 Y59.8305 
G01 X73.6319 Y59.8729 
G01 X73.6418 Y59.9143 
G01 X73.6485 Y59.9563 
G01 X73.6616 Y59.9967 
G01 X73.6716 Y60.0381 
G01 X73.6878 Y60.0774 
G01 X73.7010 Y60.1179 
G01 X73.7203 Y60.1558 
G01 X73.7366 Y60.1951 
G01 X73.7588 Y60.2314 
G01 X73.7781 Y60.2693 
G01 X73.8031 Y60.3037 
G01 X73.8254 Y60.3400 
G01 X73.8530 Y60.3723 
G01 X73.8780 Y60.4067 
G01 X73.9081 Y60.4368 
G01 X73.9357 Y60.4692 
G01 X73.9681 Y60.4968 
G01 X73.9981 Y60.5269 
G01 X74.0326 Y60.5519 
G01 X74.0649 Y60.5795 
G01 X74.0903 Y60.5951 
G01 X74.3844 Y60.8892 
G01 X74.5217 Y61.2206 
G01 X74.5217 Y63.9794 
G01 X74.3844 Y64.3108 
G01 X74.1308 Y64.5644 
G01 X73.7994 Y64.7017 
G01 X70.0406 Y64.7017 
G01 X69.6982 Y64.5598 
G01 X69.6790 Y64.5426 
G01 X69.6315 Y64.5117 
G01 X69.5857 Y64.4784 
G01 X69.5604 Y64.4656 
G01 X69.5365 Y64.4501 
G01 X69.4847 Y64.4270 
G01 X69.4343 Y64.4013 
G01 X69.4073 Y64.3925 
G01 X69.3813 Y64.3810 
G01 X69.3266 Y64.3663 
G01 X69.2727 Y64.3488 
G01 X69.2446 Y64.3443 
G01 X69.2172 Y64.3370 
G01 X69.1608 Y64.3311 
G01 X69.1048 Y64.3222 
G01 X69.0764 Y64.3222 
G01 X69.0482 Y64.3192 
G01 X68.9916 Y64.3222 
G01 X68.9349 Y64.3222 
G01 X68.9069 Y64.3266 
G01 X68.8785 Y64.3281 
G01 X68.8231 Y64.3399 
G01 X68.7671 Y64.3488 
G01 X68.7401 Y64.3576 
G01 X68.7123 Y64.3635 
G01 X68.6594 Y64.3838 
G01 X68.6055 Y64.4013 
G01 X68.5802 Y64.4142 
G01 X68.5537 Y64.4243 
G01 X68.5046 Y64.4527 
G01 X68.4541 Y64.4784 
G01 X68.4311 Y64.4951 
G01 X68.4065 Y64.5093 
G01 X68.3625 Y64.5450 
G01 X68.3166 Y64.5783 
G01 X68.2965 Y64.5984 
G01 X68.2745 Y64.6162 
G01 X68.2366 Y64.6583 
G01 X68.1965 Y64.6984 
G01 X68.1798 Y64.7214 
G01 X68.1608 Y64.7425 
G01 X68.1299 Y64.7901 
G01 X68.0966 Y64.8359 
G01 X68.0837 Y64.8612 
G01 X68.0682 Y64.8850 
G01 X68.0452 Y64.9368 
G01 X68.0195 Y64.9873 
G01 X68.0107 Y65.0143 
G01 X67.9991 Y65.0402 
G01 X67.9845 Y65.0950 
G01 X67.9669 Y65.1489 
G01 X67.9625 Y65.1769 
G01 X67.8256 Y65.6878 
G01 X67.8026 Y65.7233 
G01 X67.7910 Y65.7492 
G01 X67.7768 Y65.7738 
G01 X67.7565 Y65.8268 
G01 X67.7334 Y65.8785 
G01 X67.7261 Y65.9059 
G01 X67.7159 Y65.9324 
G01 X67.7041 Y65.9879 
G01 X67.6895 Y66.0427 
G01 X67.6865 Y66.0709 
G01 X67.6806 Y66.0986 
G01 X67.6776 Y66.1553 
G01 X67.6717 Y66.2117 
G01 X67.6732 Y66.2400 
G01 X67.6717 Y66.2683 
G01 X67.6776 Y66.3247 
G01 X67.6806 Y66.3813 
G01 X67.6865 Y66.4091 
G01 X67.6895 Y66.4373 
G01 X67.7041 Y66.4921 
G01 X67.7159 Y66.5475 
G01 X67.7261 Y66.5740 
G01 X67.7334 Y66.6014 
G01 X67.7565 Y66.6532 
G01 X67.7768 Y66.7062 
G01 X67.7910 Y66.7307 
G01 X67.8025 Y66.7567 
G01 X67.8256 Y66.7922 
G01 X67.9521 Y67.2642 
G01 X67.9521 Y67.7558 
G01 X67.8256 Y68.2278 
G01 X67.8026 Y68.2633 
G01 X67.7910 Y68.2892 
G01 X67.7768 Y68.3138 
G01 X67.7565 Y68.3668 
G01 X67.7334 Y68.4185 
G01 X67.7261 Y68.4459 
G01 X67.7159 Y68.4724 
G01 X67.7041 Y68.5279 
G01 X67.6895 Y68.5827 
G01 X67.6865 Y68.6109 
G01 X67.6806 Y68.6386 
G01 X67.6776 Y68.6953 
G01 X67.6717 Y68.7516 
G01 X67.6732 Y68.7800 
G01 X67.6717 Y68.8083 
G01 X67.6776 Y68.8647 
G01 X67.6806 Y68.9213 
G01 X67.6865 Y68.9491 
G01 X67.6895 Y68.9773 
G01 X67.7041 Y69.0321 
G01 X67.7159 Y69.0875 
G01 X67.7261 Y69.1140 
G01 X67.7334 Y69.1414 
G01 X67.7565 Y69.1932 
G01 X67.7768 Y69.2462 
G01 X67.7910 Y69.2707 
G01 X67.8025 Y69.2967 
G01 X67.8256 Y69.3322 
G01 X67.9434 Y69.7719 
G01 X67.9479 Y69.7999 
G01 X67.9654 Y69.8538 
G01 X67.9801 Y69.9086 
G01 X67.9916 Y69.9346 
G01 X68.0004 Y69.9616 
G01 X68.0261 Y70.0121 
G01 X68.0430 Y70.0500 
G01 X68.0261 Y70.0879 
G01 X68.0004 Y70.1384 
G01 X67.9916 Y70.1654 
G01 X67.9801 Y70.1914 
G01 X67.9654 Y70.2462 
G01 X67.9479 Y70.3000 
G01 X67.9434 Y70.3281 
G01 X67.8256 Y70.7678 
G01 X67.8026 Y70.8033 
G01 X67.7910 Y70.8292 
G01 X67.7768 Y70.8538 
G01 X67.7565 Y70.9068 
G01 X67.7334 Y70.9585 
G01 X67.7261 Y70.9859 
G01 X67.7159 Y71.0124 
G01 X67.7041 Y71.0679 
G01 X67.6895 Y71.1227 
G01 X67.6865 Y71.1509 
G01 X67.6806 Y71.1786 
G01 X67.6776 Y71.2353 
G01 X67.6717 Y71.2917 
G01 X67.6732 Y71.3200 
G01 X67.6717 Y71.3483 
G01 X67.6776 Y71.4047 
G01 X67.6806 Y71.4613 
G01 X67.6865 Y71.4891 
G01 X67.6895 Y71.5173 
G01 X67.7041 Y71.5721 
G01 X67.7159 Y71.6275 
G01 X67.7261 Y71.6540 
G01 X67.7334 Y71.6814 
G01 X67.7565 Y71.7332 
G01 X67.7768 Y71.7862 
G01 X67.7910 Y71.8107 
G01 X67.8025 Y71.8367 
G01 X67.8256 Y71.8722 
G01 X67.9521 Y72.3442 
G01 X67.9521 Y72.8358 
G01 X67.8256 Y73.3078 
G01 X67.8026 Y73.3433 
G01 X67.7910 Y73.3692 
G01 X67.7768 Y73.3938 
G01 X67.7565 Y73.4468 
G01 X67.7334 Y73.4985 
G01 X67.7261 Y73.5259 
G01 X67.7159 Y73.5524 
G01 X67.7041 Y73.6079 
G01 X67.6895 Y73.6627 
G01 X67.6865 Y73.6909 
G01 X67.6806 Y73.7186 
G01 X67.6776 Y73.7753 
G01 X67.6717 Y73.8316 
G01 X67.6732 Y73.8600 
G01 X67.6717 Y73.8883 
G01 X67.6776 Y73.9447 
G01 X67.6806 Y74.0013 
G01 X67.6865 Y74.0291 
G01 X67.6895 Y74.0573 
G01 X67.7041 Y74.1121 
G01 X67.7159 Y74.1675 
G01 X67.7261 Y74.1940 
G01 X67.7334 Y74.2214 
G01 X67.7565 Y74.2732 
G01 X67.7768 Y74.3262 
G01 X67.7910 Y74.3507 
G01 X67.8025 Y74.3767 
G01 X67.8256 Y74.4122 
G01 X67.9521 Y74.8842 
G01 X67.9521 Y75.3758 
G01 X67.8256 Y75.8478 
G01 X67.8026 Y75.8833 
G01 X67.7910 Y75.9092 
G01 X67.7768 Y75.9338 
G01 X67.7565 Y75.9868 
G01 X67.7334 Y76.0385 
G01 X67.7261 Y76.0659 
G01 X67.7159 Y76.0924 
G01 X67.7041 Y76.1479 
G01 X67.6895 Y76.2027 
G01 X67.6865 Y76.2309 
G01 X67.6806 Y76.2586 
G01 X67.6776 Y76.3153 
G01 X67.6717 Y76.3717 
G01 X67.6732 Y76.4000 
G01 X67.6717 Y76.4283 
G01 X67.6776 Y76.4847 
G01 X67.6806 Y76.5413 
G01 X67.6865 Y76.5691 
G01 X67.6895 Y76.5973 
G01 X67.7041 Y76.6521 
G01 X67.7159 Y76.7075 
G01 X67.7261 Y76.7340 
G01 X67.7334 Y76.7614 
G01 X67.7565 Y76.8132 
G01 X67.7768 Y76.8662 
G01 X67.7910 Y76.8907 
G01 X67.8025 Y76.9167 
G01 X67.8256 Y76.9522 
G01 X67.9521 Y77.4242 
G01 X67.9521 Y77.9006 
G01 X67.9787 Y78.0684 
G01 X68.0312 Y78.2300 
G01 X68.1083 Y78.3814 
G01 X68.2082 Y78.5188 
G01 X68.3284 Y78.6390 
G01 X68.4658 Y78.7389 
G01 X68.6172 Y78.8160 
G01 X68.7788 Y78.8685 
G01 X68.9466 Y78.8951 
G01 X112.3223 Y78.8951 
G01 X112.3820 Y78.8979 
G01 X112.4071 Y78.8951 
G01 X112.4324 Y78.8951 
G01 X112.4914 Y78.8857 
G01 X112.5508 Y78.8792 
G01 X112.5752 Y78.8725 
G01 X112.6002 Y78.8685 
G01 X112.6570 Y78.8501 
G01 X112.7147 Y78.8342 
G01 X112.7378 Y78.8238 
G01 X112.7618 Y78.8160 
G01 X112.8151 Y78.7889 
G01 X112.8695 Y78.7643 
G01 X112.8907 Y78.7503 
G01 X112.9132 Y78.7389 
G01 X112.9616 Y78.7037 
G01 X113.7936 Y78.1567 
G01 X113.8297 Y78.1369 
G01 X113.8645 Y78.1100 
G01 X113.9012 Y78.0859 
G01 X113.9316 Y78.0582 
G01 X116.5066 Y76.0693 
G01 X116.5518 Y76.0383 
G01 X116.5737 Y76.0175 
G01 X116.5976 Y75.9990 
G01 X116.6353 Y75.9591 
G01 X119.0058 Y73.7105 
G01 X119.0476 Y73.6750 
G01 X119.0673 Y73.6521 
G01 X119.0892 Y73.6313 
G01 X119.1227 Y73.5878 
G01 X121.2535 Y71.1109 
G01 X121.2915 Y71.0714 
G01 X121.3088 Y71.0466 
G01 X121.3285 Y71.0237 
G01 X121.3574 Y70.9770 
G01 X123.2267 Y68.2973 
G01 X123.2605 Y68.2541 
G01 X123.2752 Y68.2277 
G01 X123.2925 Y68.2029 
G01 X123.3165 Y68.1535 
G01 X124.9051 Y65.2984 
G01 X124.9344 Y65.2521 
G01 X124.9464 Y65.2243 
G01 X124.9611 Y65.1979 
G01 X124.9799 Y65.1464 
G01 X126.2715 Y62.1452 
G01 X126.2960 Y62.0961 
G01 X126.3051 Y62.0673 
G01 X126.3170 Y62.0395 
G01 X126.3306 Y61.9863 
G01 X127.3119 Y58.8699 
G01 X127.3313 Y58.8186 
G01 X127.3374 Y58.7890 
G01 X127.3465 Y58.7602 
G01 X127.3546 Y58.7059 
G01 X128.0157 Y55.5062 
G01 X128.0297 Y55.4531 
G01 X128.0328 Y55.4230 
G01 X128.0389 Y55.3935 
G01 X128.0415 Y55.3387 
G01 X128.3755 Y52.0884 
G01 X128.3841 Y52.0343 
G01 X128.3841 Y52.0041 
G01 X128.3872 Y51.9740 
G01 X128.3842 Y51.9192 
G01 X128.3877 Y48.6519 
G01 X128.3908 Y48.5971 
G01 X128.3877 Y48.5670 
G01 X128.3878 Y48.5368 
G01 X128.3792 Y48.4826 
G01 X128.0521 Y45.2317 
G01 X128.0497 Y45.1769 
G01 X128.0436 Y45.1473 
G01 X128.0406 Y45.1173 
G01 X128.0266 Y45.0642 
G01 X127.3723 Y41.8631 
G01 X127.3643 Y41.8088 
G01 X127.3553 Y41.7799 
G01 X127.3492 Y41.7503 
G01 X127.3300 Y41.6990 
G01 X126.3551 Y38.5805 
G01 X126.3417 Y38.5273 
G01 X126.3298 Y38.4995 
G01 X126.3208 Y38.4707 
G01 X126.2964 Y38.4215 
G01 X125.0111 Y35.4176 
G01 X124.9924 Y35.3660 
G01 X124.9777 Y35.3396 
G01 X124.9658 Y35.3118 
G01 X124.9366 Y35.2654 
G01 X123.3540 Y32.4070 
G01 X123.3301 Y32.3575 
G01 X123.3129 Y32.3327 
G01 X123.2983 Y32.3063 
G01 X123.2645 Y32.2631 
G01 X121.4008 Y29.5794 
G01 X121.3721 Y29.5327 
G01 X121.3524 Y29.5097 
G01 X121.3352 Y29.4849 
G01 X121.2972 Y29.4453 
G01 X119.1716 Y26.9639 
G01 X119.1383 Y26.9203 
G01 X119.1164 Y26.8995 
G01 X119.0967 Y26.8766 
G01 X119.0549 Y26.8410 
G01 X116.6892 Y24.5874 
G01 X116.6516 Y24.5474 
G01 X116.6277 Y24.5289 
G01 X116.6059 Y24.5081 
G01 X116.5607 Y24.4769 
G01 X113.9791 Y22.4743 
G01 X113.9377 Y22.4383 
G01 X113.9120 Y22.4222 
G01 X113.8882 Y22.4037 
G01 X113.8401 Y22.3773 
G01 X111.0691 Y20.6461 
G01 X111.0243 Y20.6145 
G01 X110.9972 Y20.6012 
G01 X110.9716 Y20.5851 
G01 X110.9210 Y20.5637 
G01 X107.9891 Y19.1217 
G01 X107.9413 Y19.0948 
G01 X107.9130 Y19.0843 
G01 X107.8859 Y19.0709 
G01 X107.8335 Y19.0547 
G01 X104.7708 Y17.9168 
G01 X104.7204 Y17.8948 
G01 X104.6912 Y17.8872 
G01 X104.6629 Y17.8767 
G01 X104.6091 Y17.8659 
G01 X101.4469 Y17.0436 
G01 X101.3947 Y17.0268 
G01 X101.3648 Y17.0222 
G01 X101.3356 Y17.0146 
G01 X101.2809 Y17.0093 
G01 X98.0519 Y16.5111 
G01 X97.9982 Y16.4998 
G01 X97.9680 Y16.4982 
G01 X97.9381 Y16.4936 
G01 X97.8833 Y16.4938 
G01 X94.6203 Y16.3249 
G01 X94.5658 Y16.3190 
G01 X94.5356 Y16.3205 
G01 X94.5054 Y16.3189 
G01 X94.4508 Y16.3247 
G01 X91.1876 Y16.4868 
G01 X91.1327 Y16.4864 
G01 X91.1028 Y16.4910 
G01 X91.0726 Y16.4925 
G01 X91.0190 Y16.5037 
G01 X87.7888 Y16.9951 
G01 X87.7342 Y17.0003 
G01 X87.7049 Y17.0079 
G01 X87.6750 Y17.0124 
G01 X87.6227 Y17.0291 
G01 X84.4589 Y17.8447 
G01 X84.4051 Y17.8554 
G01 X84.3767 Y17.8659 
G01 X84.3475 Y17.8734 
G01 X84.2972 Y17.8953 
G01 X81.2320 Y19.0268 
G01 X81.1796 Y19.0429 
G01 X81.1524 Y19.0562 
G01 X81.1241 Y19.0666 
G01 X81.0762 Y19.0935 
G01 X78.1536 Y20.5233 
G01 X78.1153 Y20.5383 
G01 X78.0774 Y20.5606 
G01 X78.0379 Y20.5799 
G01 X78.0042 Y20.6035 
G01 X76.8302 Y21.2930 
G01 X76.7832 Y21.3169 
G01 X76.7570 Y21.3360 
G01 X76.7291 Y21.3523 
G01 X76.6884 Y21.3858 
G01 X76.6458 Y21.4168 
G01 X76.6264 Y21.4361 
G01 X76.5851 Y21.4536 
G01 X76.5098 Y21.4848 
G01 X76.5068 Y21.4866 
G01 X76.5035 Y21.4880 
G01 X76.4345 Y21.5309 
G01 X76.3974 Y21.5537 
G01 X76.3896 Y21.5555 
G01 X76.3441 Y21.5630 
G01 X76.3071 Y21.5753 
G01 X76.2691 Y21.5844 
G01 X76.2266 Y21.6021 
G01 X76.2189 Y21.6046 
G01 X76.1754 Y21.6049 
G01 X76.0942 Y21.6049 
G01 X76.0907 Y21.6055 
G01 X76.0871 Y21.6055 
G01 X76.0065 Y21.6188 
G01 X75.9639 Y21.6255 
G01 X75.9560 Y21.6243 
G01 X75.9111 Y21.6138 
G01 X75.8722 Y21.6110 
G01 X75.8337 Y21.6049 
G01 X75.7876 Y21.6049 
G01 X75.7416 Y21.6016 
G01 X75.7027 Y21.6049 
G01 X39.2972 Y21.6049 
G01 X39.2584 Y21.6016 
G01 X39.2124 Y21.6049 
G01 X39.1663 Y21.6049 
G01 X39.1278 Y21.6110 
G01 X39.0889 Y21.6138 
G01 X39.0440 Y21.6243 
G01 X39.0361 Y21.6255 
G01 X38.9933 Y21.6188 
G01 X38.9129 Y21.6055 
G01 X38.9093 Y21.6055 
G01 X38.9058 Y21.6049 
G01 X38.8246 Y21.6049 
G01 X38.7810 Y21.6046 
G01 X38.7734 Y21.6021 
G01 X38.7309 Y21.5844 
G01 X38.6929 Y21.5753 
G01 X38.6559 Y21.5630 
G01 X38.6105 Y21.5555 
G01 X38.6026 Y21.5537 
G01 X38.5654 Y21.5308 
G01 X38.4965 Y21.4880 
G01 X38.4932 Y21.4866 
G01 X38.4902 Y21.4848 
G01 X38.4148 Y21.4535 
G01 X38.3736 Y21.4361 
G01 X38.3542 Y21.4168 
G01 X38.3116 Y21.3858 
G01 X38.2709 Y21.3523 
G01 X38.2430 Y21.3360 
G01 X38.2168 Y21.3169 
G01 X38.1698 Y21.2930 
G01 X36.9957 Y20.6035 
G01 X36.9621 Y20.5799 
G01 X36.9226 Y20.5606 
G01 X36.8847 Y20.5383 
G01 X36.8464 Y20.5233 
G01 X33.9238 Y19.0935 
G01 X33.8759 Y19.0666 
G01 X33.8475 Y19.0562 
G01 X33.8204 Y19.0429 
G01 X33.7680 Y19.0268 
G01 X30.7028 Y17.8953 
G01 X30.6525 Y17.8734 
G01 X30.6233 Y17.8659 
G01 X30.5949 Y17.8554 
G01 X30.5411 Y17.8447 
G01 X27.3773 Y17.0291 
G01 X27.3249 Y17.0124 
G01 X27.2951 Y17.0079 
G01 X27.2658 Y17.0003 
G01 X27.2112 Y16.9951 
G01 X23.9810 Y16.5037 
G01 X23.9273 Y16.4925 
G01 X23.8972 Y16.4910 
G01 X23.8673 Y16.4864 
G01 X23.8124 Y16.4868 
G01 X20.5492 Y16.3247 
G01 X20.4946 Y16.3189 
G01 X20.4644 Y16.3205 
G01 X20.4342 Y16.3190 
G01 X20.3797 Y16.3249 
G01 X17.1167 Y16.4938 
G01 X17.0618 Y16.4936 
G01 X17.0320 Y16.4982 
G01 X17.0018 Y16.4998 
G01 X16.9481 Y16.5111 
G01 X13.7190 Y17.0093 
G01 X13.6644 Y17.0146 
G01 X13.6351 Y17.0222 
G01 X13.6053 Y17.0268 
G01 X13.5531 Y17.0436 
G01 X10.3909 Y17.8659 
G01 X10.3371 Y17.8767 
G01 X10.3088 Y17.8872 
G01 X10.2795 Y17.8948 
G01 X10.2292 Y17.9168 
G01 X7.1665  Y19.0547 
G01 X7.1141  Y19.0709 
G01 X7.0870  Y19.0843 
G01 X7.0587  Y19.0948 
G01 X7.0108  Y19.1217 
G01 X4.0790  Y20.5637 
G01 X4.0284  Y20.5851 
G01 X4.0028  Y20.6012 
G01 X3.9757  Y20.6145 
G01 X3.9309  Y20.6461 
G01 X1.1599  Y22.3773 
G01 X1.1118  Y22.4037 
G01 X1.0879  Y22.4222 
G01 X1.0623  Y22.4383 
G01 X1.0209  Y22.4743 
G00 Z8.0000  
G00 X11.2990 Y37.3634 
G01 Z-0.1778 F254   
G01 X11.3168 Y37.3505 F508   
G01 X11.3364 Y37.3405 
G01 X11.3573 Y37.3337 
G01 X11.3790 Y37.3303 
G01 X12.0105 Y37.3303 
G01 X12.0105 Y37.3557 
G01 X11.3673 Y37.3557 
G01 X11.3253 Y37.3731 
G01 X11.2931 Y37.4053 
G01 X11.2757 Y37.4473 
G01 X11.2757 Y37.5905 
G01 X11.2503 Y37.5905 
G01 X11.2503 Y37.4590 
G01 X11.2537 Y37.4373 
G01 X11.2605 Y37.4164 
G01 X11.2705 Y37.3968 
G01 X11.2834 Y37.3790 
G01 X11.2990 Y37.3634 
G00 Z8.0000  
G00 X11.2757 Y39.7495 
G01 Z-0.1778 F254   
G01 X11.2757 Y39.8927 F508   
G01 X11.2931 Y39.9347 
G01 X11.3253 Y39.9669 
G01 X11.3673 Y39.9843 
G01 X12.0105 Y39.9843 
G01 X12.0105 Y40.0097 
G01 X11.3790 Y40.0097 
G01 X11.3573 Y40.0063 
G01 X11.3364 Y39.9995 
G01 X11.3168 Y39.9895 
G01 X11.2990 Y39.9766 
G01 X11.2834 Y39.9610 
G01 X11.2705 Y39.9432 
G01 X11.2605 Y39.9236 
G01 X11.2537 Y39.9027 
G01 X11.2503 Y39.8810 
G01 X11.2503 Y39.7495 
G01 X11.2757 Y39.7495 
G00 Z8.0000  
G00 X14.1695 Y39.9843 
G01 Z-0.1778 F254   
G01 X14.8127 Y39.9843 F508   
G01 X14.8547 Y39.9669 
G01 X14.8869 Y39.9347 
G01 X14.9043 Y39.8927 
G01 X14.9043 Y39.7495 
G01 X14.9297 Y39.7495 
G01 X14.9297 Y39.8810 
G01 X14.9263 Y39.9027 
G01 X14.9195 Y39.9236 
G01 X14.9095 Y39.9432 
G01 X14.8966 Y39.9610 
G01 X14.8810 Y39.9766 
G01 X14.8632 Y39.9895 
G01 X14.8436 Y39.9995 
G01 X14.8227 Y40.0063 
G01 X14.8010 Y40.0097 
G01 X14.1695 Y40.0097 
G01 X14.1695 Y39.9843 
G00 Z8.0000  
G00 X14.1695 Y37.3557 
G01 Z-0.1778 F254   
G01 X14.1695 Y37.3303 F508   
G01 X14.8010 Y37.3303 
G01 X14.8227 Y37.3337 
G01 X14.8436 Y37.3405 
G01 X14.8632 Y37.3505 
G01 X14.8810 Y37.3634 
G01 X14.8966 Y37.3790 
G01 X14.9095 Y37.3968 
G01 X14.9195 Y37.4164 
G01 X14.9263 Y37.4373 
G01 X14.9297 Y37.4590 
G01 X14.9297 Y37.5905 
G01 X14.9043 Y37.5905 
G01 X14.9043 Y37.4473 
G01 X14.8869 Y37.4053 
G01 X14.8547 Y37.3731 
G01 X14.8127 Y37.3557 
G01 X14.1695 Y37.3557 
G00 Z8.0000  
G00 X14.9694 Y43.5683 
G01 Z-0.1778 F254   
G01 X15.3008 Y43.7056 F508   
G01 X15.5544 Y43.9592 
G01 X15.6917 Y44.2906 
G01 X15.6917 Y47.0494 
G01 X15.5544 Y47.3808 
G01 X15.4876 Y47.4475 
G01 X15.3878 Y47.5850 
G01 X15.3505 Y47.6583 
G01 X15.3106 Y47.7364 
G01 X15.3047 Y47.7548 
G01 X15.2581 Y47.8980 
G01 X15.2462 Y47.9733 
G01 X15.2315 Y48.0658 
G01 X15.2315 Y48.2358 
G01 X15.2463 Y48.3292 
G01 X15.2581 Y48.4036 
G01 X15.2603 Y48.4103 
G01 X15.3106 Y48.5652 
G01 X15.3305 Y48.6041 
G01 X15.3305 Y49.2557 
G01 X14.6873 Y49.2557 
G01 X14.6453 Y49.2731 
G01 X14.6131 Y49.3053 
G01 X14.5957 Y49.3473 
G01 X14.5957 Y49.4905 
G01 X14.5703 Y49.4905 
G01 X14.5703 Y49.3590 
G01 X14.5737 Y49.3373 
G01 X14.5805 Y49.3164 
G01 X14.6007 Y49.2768 
G01 X14.6064 Y49.2656 
G01 X14.6413 Y49.1581 
G01 X14.6589 Y49.1040 
G01 X14.6749 Y49.0028 
G01 X14.6855 Y48.9362 
G01 X14.6855 Y48.8503 
G01 X14.6855 Y48.7663 
G01 X14.6743 Y48.6954 
G01 X14.6589 Y48.5984 
G01 X14.6282 Y48.5038 
G01 X14.6064 Y48.4368 
G01 X14.5651 Y48.3557 
G01 X14.5293 Y48.2854 
G01 X14.5091 Y48.2576 
G01 X14.4294 Y48.1480 
G01 X14.3093 Y48.0278 
G01 X14.2715 Y48.0004 
G01 X14.1718 Y47.9279 
G01 X14.0330 Y47.8572 
G01 X14.0204 Y47.8508 
G01 X13.9129 Y47.8159 
G01 X13.8588 Y47.7983 
G01 X13.7576 Y47.7823 
G01 X13.6910 Y47.7717 
G01 X13.6051 Y47.7717 
G01 X13.5211 Y47.7717 
G01 X11.2106 Y47.7717 
G01 X10.8792 Y47.6344 
G01 X10.6256 Y47.3808 
G01 X10.4883 Y47.0494 
G01 X10.4883 Y44.2906 
G01 X10.6256 Y43.9592 
G01 X10.8792 Y43.7056 
G01 X11.2106 Y43.5683 
G01 X14.9694 Y43.5683 
G00 Z8.0000  
G00 X14.8547 Y44.3731 
G01 Z-0.1778 F254   
G01 X14.8127 Y44.3557 F508   
G01 X11.3673 Y44.3557 
G01 X11.3253 Y44.3731 
G01 X11.2931 Y44.4053 
G01 X11.2757 Y44.4473 
G01 X11.2757 Y46.8927 
G01 X11.2931 Y46.9347 
G01 X11.3253 Y46.9669 
G01 X11.3673 Y46.9843 
G01 X14.8127 Y46.9843 
G01 X14.8547 Y46.9669 
G01 X14.8869 Y46.9347 
G01 X14.9043 Y46.8927 
G01 X14.9043 Y44.4473 
G01 X14.8869 Y44.4053 
G01 X14.8547 Y44.3731 
G00 Z8.0000  
G00 X17.4895 Y49.2303 
G01 Z-0.1778 F254   
G01 X18.1210 Y49.2303 F508   
G01 X18.1427 Y49.2337 
G01 X18.1636 Y49.2405 
G01 X18.1832 Y49.2505 
G01 X18.2010 Y49.2634 
G01 X18.2166 Y49.2790 
G01 X18.2295 Y49.2968 
G01 X18.2395 Y49.3164 
G01 X18.2463 Y49.3373 
G01 X18.2497 Y49.3590 
G01 X18.2497 Y49.4905 
G01 X18.2243 Y49.4905 
G01 X18.2243 Y49.3473 
G01 X18.2069 Y49.3053 
G01 X18.1747 Y49.2731 
G01 X18.1327 Y49.2557 
G01 X17.4895 Y49.2557 
G01 X17.4895 Y49.2303 
G00 Z8.0000  
G00 X17.4895 Y51.8843 
G01 Z-0.1778 F254   
G01 X18.1327 Y51.8843 F508   
G01 X18.1747 Y51.8669 
G01 X18.2069 Y51.8347 
G01 X18.2243 Y51.7927 
G01 X18.2243 Y51.6495 
G01 X18.2497 Y51.6495 
G01 X18.2497 Y51.7810 
G01 X18.2463 Y51.8027 
G01 X18.2395 Y51.8236 
G01 X18.2295 Y51.8432 
G01 X18.2166 Y51.8610 
G01 X18.2010 Y51.8766 
G01 X18.1832 Y51.8895 
G01 X18.1636 Y51.8995 
G01 X18.1427 Y51.9063 
G01 X18.1210 Y51.9097 
G01 X17.4895 Y51.9097 
G01 X17.4895 Y51.8843 
G00 Z8.0000  
G00 X15.3305 Y51.8843 
G01 Z-0.1778 F254   
G01 X15.3305 Y51.9097 F508   
G01 X14.6990 Y51.9097 
G01 X14.6773 Y51.9063 
G01 X14.6564 Y51.8995 
G01 X14.6368 Y51.8895 
G01 X14.6190 Y51.8766 
G01 X14.6034 Y51.8610 
G01 X14.5905 Y51.8432 
G01 X14.5805 Y51.8236 
G01 X14.5737 Y51.8027 
G01 X14.5703 Y51.7810 
G01 X14.5703 Y51.6495 
G01 X14.5957 Y51.6495 
G01 X14.5957 Y51.7927 
G01 X14.6131 Y51.8347 
G01 X14.6453 Y51.8669 
G01 X14.6873 Y51.8843 
G01 X15.3305 Y51.8843 
G00 Z8.0000  
G00 X14.6873 Y56.2557 
G01 Z-0.1778 F254   
G01 X14.6453 Y56.2731 F508   
G01 X14.6131 Y56.3053 
G01 X14.5957 Y56.3473 
G01 X14.5957 Y58.7927 
G01 X14.6131 Y58.8347 
G01 X14.6453 Y58.8669 
G01 X14.6873 Y58.8843 
G01 X16.0827 Y58.8843 
G01 X23.4268 Y66.2284 
G01 X23.5642 Y66.3283 
G01 X23.7156 Y66.4054 
G01 X23.8772 Y66.4579 
G01 X24.0450 Y66.4845 
G01 X35.7479 Y66.4845 
G01 X42.5566 Y73.2932 
G01 X42.6768 Y73.4134 
G01 X42.8142 Y73.5133 
G01 X42.9656 Y73.5904 
G01 X43.1272 Y73.6429 
G01 X43.2950 Y73.6695 
G01 X50.9302 Y73.6695 
G01 X51.0980 Y73.6429 
G01 X51.2596 Y73.5904 
G01 X51.4110 Y73.5133 
G01 X51.5484 Y73.4134 
G01 X51.6686 Y73.2932 
G01 X51.7685 Y73.1558 
G01 X51.8456 Y73.0044 
G01 X51.8981 Y72.8428 
G01 X51.9247 Y72.6750 
G01 X51.9247 Y72.5050 
G01 X51.8981 Y72.3372 
G01 X51.8456 Y72.1756 
G01 X51.7685 Y72.0242 
G01 X51.6686 Y71.8868 
G01 X51.5484 Y71.7666 
G01 X51.4110 Y71.6667 
G01 X51.2596 Y71.5896 
G01 X51.0980 Y71.5371 
G01 X50.9302 Y71.5105 
G01 X43.8271 Y71.5105 
G01 X37.0184 Y64.7018 
G01 X36.8982 Y64.5816 
G01 X36.7608 Y64.4817 
G01 X36.6094 Y64.4046 
G01 X36.4478 Y64.3521 
G01 X36.2800 Y64.3255 
G01 X24.5771 Y64.3255 
G01 X18.2243 Y57.9727 
G01 X18.2243 Y56.3473 
G01 X18.2069 Y56.3053 
G01 X18.1747 Y56.2731 
G01 X18.1327 Y56.2557 
G01 X14.6873 Y56.2557 
G00 Z8.0000  
G00 X14.9043 Y63.1495 
G01 Z-0.1778 F254   
G01 X14.9297 Y63.1495 F508   
G01 X14.9297 Y63.2810 
G01 X14.9263 Y63.3027 
G01 X14.9195 Y63.3236 
G01 X14.9095 Y63.3432 
G01 X14.8966 Y63.3610 
G01 X14.8810 Y63.3766 
G01 X14.8632 Y63.3895 
G01 X14.8436 Y63.3995 
G01 X14.8227 Y63.4063 
G01 X14.8010 Y63.4097 
G01 X14.1695 Y63.4097 
G01 X14.1695 Y63.3843 
G01 X14.8127 Y63.3843 
G01 X14.8547 Y63.3669 
G01 X14.8869 Y63.3347 
G01 X14.9043 Y63.2927 
G01 X14.9043 Y63.1495 
G00 Z8.0000  
G00 X12.0105 Y63.3843 
G01 Z-0.1778 F254   
G01 X12.0105 Y63.4097 F508   
G01 X11.3790 Y63.4097 
G01 X11.3573 Y63.4063 
G01 X11.3364 Y63.3995 
G01 X11.3168 Y63.3895 
G01 X11.2990 Y63.3766 
G01 X11.2834 Y63.3610 
G01 X11.2705 Y63.3432 
G01 X11.2605 Y63.3236 
G01 X11.2537 Y63.3027 
G01 X11.2503 Y63.2810 
G01 X11.2503 Y63.1495 
G01 X11.2757 Y63.1495 
G01 X11.2757 Y63.2927 
G01 X11.2931 Y63.3347 
G01 X11.3253 Y63.3669 
G01 X11.3673 Y63.3843 
G01 X12.0105 Y63.3843 
G00 Z8.0000  
G00 X11.2106 Y66.9683 
G01 Z-0.1778 F254   
G01 X14.9694 Y66.9683 F508   
G01 X15.3008 Y67.1056 
G01 X15.5544 Y67.3592 
G01 X15.6917 Y67.6906 
G01 X15.6917 Y70.4494 
G01 X15.5544 Y70.7808 
G01 X15.3008 Y71.0344 
G01 X14.9694 Y71.1717 
G01 X11.2106 Y71.1717 
G01 X10.8792 Y71.0344 
G01 X10.6256 Y70.7808 
G01 X10.4883 Y70.4494 
G01 X10.4883 Y67.6906 
G01 X10.6256 Y67.3592 
G01 X10.8792 Y67.1056 
G01 X11.2106 Y66.9683 
G00 Z8.0000  
G00 X11.2931 Y67.8053 
G01 Z-0.1778 F254   
G01 X11.2757 Y67.8473 F508   
G01 X11.2757 Y70.2927 
G01 X11.2931 Y70.3347 
G01 X11.3253 Y70.3669 
G01 X11.3673 Y70.3843 
G01 X14.8127 Y70.3843 
G01 X14.8547 Y70.3669 
G01 X14.8869 Y70.3347 
G01 X14.9043 Y70.2927 
G01 X14.9043 Y67.8473 
G01 X14.8869 Y67.8053 
G01 X14.8547 Y67.7731 
G01 X14.8127 Y67.7557 
G01 X11.3673 Y67.7557 
G01 X11.3253 Y67.7731 
G01 X11.2931 Y67.8053 
G00 Z8.0000  
G00 X26.2931 Y67.8053 
G01 Z-0.1778 F254   
G01 X26.2757 Y67.8473 F508   
G01 X26.2757 Y70.2927 
G01 X26.2931 Y70.3347 
G01 X26.3253 Y70.3669 
G01 X26.3673 Y70.3843 
G01 X29.8127 Y70.3843 
G01 X29.8547 Y70.3669 
G01 X29.8869 Y70.3347 
G01 X29.9043 Y70.2927 
G01 X29.9043 Y70.1495 
G01 X33.0629 Y70.1495 
G01 X41.4068 Y78.4934 
G01 X41.5442 Y78.5933 
G01 X41.6956 Y78.6704 
G01 X41.8572 Y78.7229 
G01 X42.0250 Y78.7495 
G01 X50.9302 Y78.7495 
G01 X51.0980 Y78.7229 
G01 X51.2596 Y78.6704 
G01 X51.4110 Y78.5933 
G01 X51.5484 Y78.4934 
G01 X51.6686 Y78.3732 
G01 X51.7685 Y78.2358 
G01 X51.8456 Y78.0844 
G01 X51.8981 Y77.9228 
G01 X51.9247 Y77.7550 
G01 X51.9247 Y77.5850 
G01 X51.8981 Y77.4172 
G01 X51.8456 Y77.2556 
G01 X51.7685 Y77.1042 
G01 X51.6686 Y76.9668 
G01 X51.5484 Y76.8466 
G01 X51.4110 Y76.7467 
G01 X51.2596 Y76.6696 
G01 X51.0980 Y76.6171 
G01 X50.9302 Y76.5905 
G01 X48.8298 Y76.5905 
G01 X42.5571 Y76.5905 
G01 X34.2132 Y68.2466 
G01 X34.0758 Y68.1467 
G01 X33.9244 Y68.0696 
G01 X33.7628 Y68.0171 
G01 X33.5950 Y67.9905 
G01 X29.9043 Y67.9905 
G01 X29.9043 Y67.8473 
G01 X29.8869 Y67.8053 
G01 X29.8547 Y67.7731 
G01 X29.8127 Y67.7557 
G01 X26.3673 Y67.7557 
G01 X26.3253 Y67.7731 
G01 X26.2931 Y67.8053 
G00 Z8.0000  
G00 X26.3127 Y58.6843 
G01 Z-0.1778 F254   
G01 X26.3547 Y58.6669 F508   
G01 X26.3869 Y58.6347 
G01 X26.4043 Y58.5927 
G01 X26.4043 Y56.1473 
G01 X26.3869 Y56.1053 
G01 X26.3547 Y56.0731 
G01 X26.3127 Y56.0557 
G01 X22.8673 Y56.0557 
G01 X22.8253 Y56.0731 
G01 X22.7931 Y56.1053 
G01 X22.7757 Y56.1473 
G01 X22.7757 Y58.5927 
G01 X22.7931 Y58.6347 
G01 X22.8253 Y58.6669 
G01 X22.8673 Y58.6843 
G01 X26.3127 Y58.6843 
G00 Z8.0000  
G00 X29.1695 Y60.7303 
G01 Z-0.1778 F254   
G01 X29.8010 Y60.7303 F508   
G01 X29.8227 Y60.7337 
G01 X29.8436 Y60.7405 
G01 X29.8632 Y60.7505 
G01 X29.8810 Y60.7634 
G01 X29.8966 Y60.7790 
G01 X29.9095 Y60.7968 
G01 X29.9195 Y60.8164 
G01 X29.9263 Y60.8373 
G01 X29.9297 Y60.8590 
G01 X29.9297 Y60.9905 
G01 X29.9043 Y60.9905 
G01 X29.9043 Y60.8473 
G01 X29.8869 Y60.8053 
G01 X29.8547 Y60.7731 
G01 X29.8127 Y60.7557 
G01 X29.1695 Y60.7557 
G01 X29.1695 Y60.7303 
G00 Z8.0000  
G00 X37.8253 Y58.6669 
G01 Z-0.1778 F254   
G01 X37.8673 Y58.6843 F508   
G01 X38.5105 Y58.6843 
G01 X38.5105 Y62.5350 
G01 X38.5371 Y62.7028 
G01 X38.5896 Y62.8644 
G01 X38.6667 Y63.0158 
G01 X38.7666 Y63.1532 
G01 X43.8266 Y68.2132 
G01 X43.9468 Y68.3334 
G01 X44.0842 Y68.4333 
G01 X44.2356 Y68.5104 
G01 X44.3972 Y68.5629 
G01 X44.5650 Y68.5895 
G01 X50.9302 Y68.5895 
G01 X51.0980 Y68.5629 
G01 X51.2596 Y68.5104 
G01 X51.4110 Y68.4333 
G01 X51.5484 Y68.3334 
G01 X51.6686 Y68.2132 
G01 X51.7685 Y68.0758 
G01 X51.8456 Y67.9244 
G01 X51.8981 Y67.7628 
G01 X51.9247 Y67.5950 
G01 X51.9247 Y67.4250 
G01 X51.8981 Y67.2572 
G01 X51.8456 Y67.0956 
G01 X51.7685 Y66.9442 
G01 X51.6686 Y66.8068 
G01 X51.5484 Y66.6866 
G01 X51.4110 Y66.5867 
G01 X51.2596 Y66.5096 
G01 X51.0980 Y66.4571 
G01 X50.9302 Y66.4305 
G01 X45.0971 Y66.4305 
G01 X40.6695 Y62.0029 
G01 X40.6695 Y58.6843 
G01 X41.3127 Y58.6843 
G01 X41.3547 Y58.6669 
G01 X41.3869 Y58.6347 
G01 X41.4043 Y58.5927 
G01 X41.4043 Y56.1473 
G01 X41.3869 Y56.1053 
G01 X41.3547 Y56.0731 
G01 X41.3127 Y56.0557 
G01 X37.8673 Y56.0557 
G01 X37.8253 Y56.0731 
G01 X37.7931 Y56.1053 
G01 X37.7757 Y56.1473 
G01 X37.7757 Y58.5927 
G01 X37.7931 Y58.6347 
G01 X37.8253 Y58.6669 
G00 Z8.0000  
G00 X43.3705 Y59.7750 
G01 Z-0.1778 F254   
G01 X43.3971 Y59.9428 F508   
G01 X43.4496 Y60.1044 
G01 X43.5267 Y60.2558 
G01 X43.6266 Y60.3932 
G01 X43.7468 Y60.5134 
G01 X46.4868 Y63.2534 
G01 X46.6242 Y63.3533 
G01 X46.7756 Y63.4304 
G01 X46.9372 Y63.4829 
G01 X47.1050 Y63.5095 
G01 X50.9302 Y63.5095 
G01 X51.0980 Y63.4829 
G01 X51.2596 Y63.4304 
G01 X51.4110 Y63.3533 
G01 X51.5484 Y63.2534 
G01 X51.6686 Y63.1332 
G01 X51.7685 Y62.9958 
G01 X51.8456 Y62.8444 
G01 X51.8981 Y62.6828 
G01 X51.9247 Y62.5150 
G01 X51.9247 Y62.3450 
G01 X51.8981 Y62.1772 
G01 X51.8456 Y62.0156 
G01 X51.7685 Y61.8642 
G01 X51.6686 Y61.7268 
G01 X51.5484 Y61.6066 
G01 X51.4110 Y61.5067 
G01 X51.2596 Y61.4296 
G01 X51.0980 Y61.3771 
G01 X50.9302 Y61.3505 
G01 X48.8298 Y61.3505 
G01 X47.6371 Y61.3505 
G01 X45.5295 Y59.2429 
G01 X45.5295 Y46.9050 
G01 X45.5029 Y46.7372 
G01 X45.4504 Y46.5756 
G01 X45.3733 Y46.4242 
G01 X45.2734 Y46.2868 
G01 X44.0034 Y45.0168 
G01 X43.8832 Y44.8966 
G01 X43.7458 Y44.7967 
G01 X43.5944 Y44.7196 
G01 X43.4328 Y44.6671 
G01 X43.2650 Y44.6405 
G01 X29.9043 Y44.6405 
G01 X29.9043 Y44.4473 
G01 X29.8869 Y44.4053 
G01 X29.8547 Y44.3731 
G01 X29.8127 Y44.3557 
G01 X26.3673 Y44.3557 
G01 X26.3253 Y44.3731 
G01 X26.2931 Y44.4053 
G01 X26.2757 Y44.4473 
G01 X26.2757 Y46.8927 
G01 X26.2931 Y46.9347 
G01 X26.3253 Y46.9669 
G01 X26.3673 Y46.9843 
G01 X29.8127 Y46.9843 
G01 X29.8547 Y46.9669 
G01 X29.8869 Y46.9347 
G01 X29.9043 Y46.8927 
G01 X29.9043 Y46.7995 
G01 X42.7329 Y46.7995 
G01 X43.3705 Y47.4371 
G01 X43.3705 Y59.7750 
G00 Z8.0000  
G00 X47.8353 Y59.8050 
G01 Z-0.1778 F254   
G01 X47.8353 Y59.9750 F508   
G01 X47.8619 Y60.1428 
G01 X47.9144 Y60.3044 
G01 X47.9915 Y60.4558 
G01 X48.0914 Y60.5932 
G01 X48.2116 Y60.7134 
G01 X48.3490 Y60.8133 
G01 X48.5004 Y60.8904 
G01 X48.6620 Y60.9429 
G01 X48.8298 Y60.9695 
G01 X50.9302 Y60.9695 
G01 X51.0980 Y60.9429 
G01 X51.2596 Y60.8904 
G01 X51.4110 Y60.8133 
G01 X51.5484 Y60.7134 
G01 X51.6686 Y60.5932 
G01 X51.7685 Y60.4558 
G01 X51.8456 Y60.3044 
G01 X51.8981 Y60.1428 
G01 X51.9247 Y59.9750 
G01 X51.9247 Y59.8050 
G01 X51.8981 Y59.6372 
G01 X51.8456 Y59.4756 
G01 X51.7685 Y59.3242 
G01 X51.6686 Y59.1868 
G01 X51.5484 Y59.0666 
G01 X51.4110 Y58.9667 
G01 X51.2596 Y58.8896 
G01 X51.0980 Y58.8371 
G01 X50.9302 Y58.8105 
G01 X48.8298 Y58.8105 
G01 X48.6620 Y58.8371 
G01 X48.5004 Y58.8896 
G01 X48.3490 Y58.9667 
G01 X48.2116 Y59.0666 
G01 X48.0914 Y59.1868 
G01 X47.9915 Y59.3242 
G01 X47.9144 Y59.4756 
G01 X47.8619 Y59.6372 
G01 X47.8353 Y59.8050 
G00 Z8.0000  
G00 X48.2116 Y58.1734 
G01 Z-0.1778 F254   
G01 X48.3490 Y58.2733 F508   
G01 X48.5004 Y58.3504 
G01 X48.6620 Y58.4029 
G01 X48.8298 Y58.4295 
G01 X57.6700 Y58.4295 
G01 X57.8378 Y58.4029 
G01 X57.9994 Y58.3504 
G01 X58.1508 Y58.2733 
G01 X58.2882 Y58.1734 
G01 X61.0282 Y55.4334 
G01 X61.1484 Y55.3132 
G01 X61.2483 Y55.1758 
G01 X61.3254 Y55.0244 
G01 X61.3779 Y54.8628 
G01 X61.4045 Y54.6950 
G01 X61.4045 Y34.7371 
G01 X62.6771 Y33.4645 
G01 X66.8629 Y33.4645 
G01 X69.4055 Y36.0071 
G01 X69.4055 Y57.2350 
G01 X69.4321 Y57.4028 
G01 X69.4846 Y57.5644 
G01 X69.5617 Y57.7158 
G01 X69.6616 Y57.8532 
G01 X70.6755 Y58.8671 
G01 X70.6755 Y61.2857 
G01 X70.1973 Y61.2857 
G01 X70.1553 Y61.3031 
G01 X70.1231 Y61.3353 
G01 X70.1057 Y61.3773 
G01 X70.1057 Y63.8227 
G01 X70.1231 Y63.8647 
G01 X70.1553 Y63.8969 
G01 X70.1973 Y63.9143 
G01 X73.6427 Y63.9143 
G01 X73.6847 Y63.8969 
G01 X73.7169 Y63.8647 
G01 X73.7343 Y63.8227 
G01 X73.7343 Y61.3773 
G01 X73.7169 Y61.3353 
G01 X73.6847 Y61.3031 
G01 X73.6427 Y61.2857 
G01 X72.8345 Y61.2857 
G01 X72.8345 Y58.3350 
G01 X72.8079 Y58.1672 
G01 X72.7554 Y58.0056 
G01 X72.6783 Y57.8542 
G01 X72.5784 Y57.7168 
G01 X72.4582 Y57.5966 
G01 X71.5645 Y56.7029 
G01 X71.5645 Y35.4750 
G01 X71.5379 Y35.3072 
G01 X71.4854 Y35.1456 
G01 X71.4083 Y34.9942 
G01 X71.3084 Y34.8568 
G01 X71.1882 Y34.7366 
G01 X68.0132 Y31.5616 
G01 X67.8758 Y31.4617 
G01 X67.7244 Y31.3846 
G01 X67.5628 Y31.3321 
G01 X67.3950 Y31.3055 
G01 X62.1450 Y31.3055 
G01 X61.9772 Y31.3321 
G01 X61.8156 Y31.3846 
G01 X61.6642 Y31.4617 
G01 X61.5268 Y31.5616 
G01 X61.4066 Y31.6818 
G01 X59.5016 Y33.5868 
G01 X59.4017 Y33.7242 
G01 X59.3246 Y33.8756 
G01 X59.2721 Y34.0372 
G01 X59.2455 Y34.2050 
G01 X59.2455 Y54.1629 
G01 X57.1379 Y56.2705 
G01 X48.8298 Y56.2705 
G01 X48.6620 Y56.2971 
G01 X48.5004 Y56.3496 
G01 X48.3490 Y56.4267 
G01 X48.2116 Y56.5266 
G01 X48.0914 Y56.6468 
G01 X47.9915 Y56.7842 
G01 X47.9144 Y56.9356 
G01 X47.8619 Y57.0972 
G01 X47.8353 Y57.2650 
G01 X47.8353 Y57.4350 
G01 X47.8619 Y57.6028 
G01 X47.9144 Y57.7644 
G01 X47.9915 Y57.9158 
G01 X48.0914 Y58.0532 
G01 X48.2116 Y58.1734 
G00 Z8.0000  
G00 X48.2116 Y55.6334 
G01 Z-0.1778 F254   
G01 X48.3490 Y55.7333 F508   
G01 X48.5004 Y55.8104 
G01 X48.6620 Y55.8629 
G01 X48.8298 Y55.8895 
G01 X50.9302 Y55.8895 
G01 X51.0980 Y55.8629 
G01 X51.2596 Y55.8104 
G01 X51.4110 Y55.7333 
G01 X51.5484 Y55.6334 
G01 X51.6686 Y55.5132 
G01 X51.7685 Y55.3758 
G01 X51.8456 Y55.2244 
G01 X51.8981 Y55.0628 
G01 X51.9247 Y54.8950 
G01 X51.9247 Y54.7250 
G01 X51.8981 Y54.5572 
G01 X51.8456 Y54.3956 
G01 X51.7685 Y54.2442 
G01 X51.6686 Y54.1068 
G01 X51.5484 Y53.9866 
G01 X51.4110 Y53.8867 
G01 X51.2596 Y53.8096 
G01 X51.0980 Y53.7571 
G01 X50.9302 Y53.7305 
G01 X48.8298 Y53.7305 
G01 X48.6620 Y53.7571 
G01 X48.5004 Y53.8096 
G01 X48.3490 Y53.8867 
G01 X48.2116 Y53.9866 
G01 X48.0914 Y54.1068 
G01 X47.9915 Y54.2442 
G01 X47.9144 Y54.3956 
G01 X47.8619 Y54.5572 
G01 X47.8353 Y54.7250 
G01 X47.8353 Y54.8950 
G01 X47.8619 Y55.0628 
G01 X47.9144 Y55.2244 
G01 X47.9915 Y55.3758 
G01 X48.0914 Y55.5132 
G01 X48.2116 Y55.6334 
G00 Z8.0000  
G00 X48.2116 Y53.0934 
G01 Z-0.1778 F254   
G01 X48.3490 Y53.1933 F508   
G01 X48.5004 Y53.2704 
G01 X48.6620 Y53.3229 
G01 X48.8298 Y53.3495 
G01 X54.4950 Y53.3495 
G01 X54.6628 Y53.3229 
G01 X54.8244 Y53.2704 
G01 X54.9758 Y53.1933 
G01 X55.1132 Y53.0934 
G01 X57.2182 Y50.9884 
G01 X57.3384 Y50.8682 
G01 X57.4383 Y50.7308 
G01 X57.5154 Y50.5794 
G01 X57.5679 Y50.4178 
G01 X57.5945 Y50.2500 
G01 X57.5945 Y30.2921 
G01 X60.1371 Y27.7495 
G01 X70.0379 Y27.7495 
G01 X84.0105 Y41.7221 
G01 X84.0105 Y44.2407 
G01 X83.5573 Y44.2407 
G01 X83.5153 Y44.2581 
G01 X83.4831 Y44.2903 
G01 X83.4657 Y44.3323 
G01 X83.4657 Y46.7777 
G01 X83.4831 Y46.8197 
G01 X83.5153 Y46.8519 
G01 X83.5573 Y46.8693 
G01 X87.0027 Y46.8693 
G01 X87.0447 Y46.8519 
G01 X87.0769 Y46.8197 
G01 X87.0943 Y46.7777 
G01 X87.0943 Y44.3323 
G01 X87.0769 Y44.2903 
G01 X87.0447 Y44.2581 
G01 X87.0027 Y44.2407 
G01 X86.1695 Y44.2407 
G01 X86.1695 Y41.1900 
G01 X86.1429 Y41.0222 
G01 X86.0904 Y40.8606 
G01 X86.0133 Y40.7092 
G01 X85.9134 Y40.5718 
G01 X85.7932 Y40.4516 
G01 X71.1882 Y25.8466 
G01 X71.0508 Y25.7467 
G01 X70.8994 Y25.6696 
G01 X70.7378 Y25.6171 
G01 X70.5700 Y25.5905 
G01 X59.6050 Y25.5905 
G01 X59.4372 Y25.6171 
G01 X59.2756 Y25.6696 
G01 X59.1242 Y25.7467 
G01 X58.9868 Y25.8466 
G01 X55.6916 Y29.1418 
G01 X55.5917 Y29.2792 
G01 X55.5146 Y29.4306 
G01 X55.4621 Y29.5922 
G01 X55.4355 Y29.7600 
G01 X55.4355 Y49.7179 
G01 X53.9629 Y51.1905 
G01 X48.8298 Y51.1905 
G01 X48.6620 Y51.2171 
G01 X48.5004 Y51.2696 
G01 X48.3490 Y51.3467 
G01 X48.2116 Y51.4466 
G01 X48.0914 Y51.5668 
G01 X47.9915 Y51.7042 
G01 X47.9144 Y51.8556 
G01 X47.8619 Y52.0172 
G01 X47.8353 Y52.1850 
G01 X47.8353 Y52.3550 
G01 X47.8619 Y52.5228 
G01 X47.9144 Y52.6844 
G01 X47.9915 Y52.8358 
G01 X48.0914 Y52.9732 
G01 X48.2116 Y53.0934 
G00 Z8.0000  
G00 X48.2116 Y48.0134 
G01 Z-0.1778 F254   
G01 X48.3490 Y48.1133 F508   
G01 X48.5004 Y48.1904 
G01 X48.6620 Y48.2429 
G01 X48.8298 Y48.2695 
G01 X50.9302 Y48.2695 
G01 X51.0980 Y48.2429 
G01 X51.2596 Y48.1904 
G01 X51.4110 Y48.1133 
G01 X51.5484 Y48.0134 
G01 X51.6686 Y47.8932 
G01 X51.7685 Y47.7558 
G01 X51.8456 Y47.6044 
G01 X51.8981 Y47.4428 
G01 X51.9247 Y47.2750 
G01 X51.9247 Y47.1050 
G01 X51.8981 Y46.9372 
G01 X51.8456 Y46.7756 
G01 X51.7685 Y46.6242 
G01 X51.6686 Y46.4868 
G01 X51.5484 Y46.3666 
G01 X51.4110 Y46.2667 
G01 X51.2596 Y46.1896 
G01 X51.0980 Y46.1371 
G01 X50.9302 Y46.1105 
G01 X48.8298 Y46.1105 
G01 X48.6620 Y46.1371 
G01 X48.5004 Y46.1896 
G01 X48.3490 Y46.2667 
G01 X48.2116 Y46.3666 
G01 X48.0914 Y46.4868 
G01 X47.9915 Y46.6242 
G01 X47.9144 Y46.7756 
G01 X47.8619 Y46.9372 
G01 X47.8353 Y47.1050 
G01 X47.8353 Y47.2750 
G01 X47.8619 Y47.4428 
G01 X47.9144 Y47.6044 
G01 X47.9915 Y47.7558 
G01 X48.0914 Y47.8932 
G01 X48.2116 Y48.0134 
G00 Z8.0000  
G00 X48.2116 Y45.4734 
G01 Z-0.1778 F254   
G01 X48.3490 Y45.5733 F508   
G01 X48.5004 Y45.6504 
G01 X48.6620 Y45.7029 
G01 X48.8298 Y45.7295 
G01 X50.9302 Y45.7295 
G01 X51.0980 Y45.7029 
G01 X51.2596 Y45.6504 
G01 X51.4110 Y45.5733 
G01 X51.5484 Y45.4734 
G01 X51.6686 Y45.3532 
G01 X51.7685 Y45.2158 
G01 X51.8456 Y45.0644 
G01 X51.8981 Y44.9028 
G01 X51.9247 Y44.7350 
G01 X51.9247 Y44.5650 
G01 X51.8981 Y44.3972 
G01 X51.8456 Y44.2356 
G01 X51.7685 Y44.0842 
G01 X51.6686 Y43.9468 
G01 X51.5484 Y43.8266 
G01 X51.4110 Y43.7267 
G01 X51.2596 Y43.6496 
G01 X51.0980 Y43.5971 
G01 X50.9302 Y43.5705 
G01 X48.8298 Y43.5705 
G01 X48.6620 Y43.5971 
G01 X48.5004 Y43.6496 
G01 X48.3490 Y43.7267 
G01 X48.2116 Y43.8266 
G01 X48.0914 Y43.9468 
G01 X47.9915 Y44.0842 
G01 X47.9144 Y44.2356 
G01 X47.8619 Y44.3972 
G01 X47.8353 Y44.5650 
G01 X47.8353 Y44.7350 
G01 X47.8619 Y44.9028 
G01 X47.9144 Y45.0644 
G01 X47.9915 Y45.2158 
G01 X48.0914 Y45.3532 
G01 X48.2116 Y45.4734 
G00 Z8.0000  
G00 X48.2116 Y42.9334 
G01 Z-0.1778 F254   
G01 X48.3490 Y43.0333 F508   
G01 X48.5004 Y43.1104 
G01 X48.6620 Y43.1629 
G01 X48.8298 Y43.1895 
G01 X50.9302 Y43.1895 
G01 X51.0980 Y43.1629 
G01 X51.2596 Y43.1104 
G01 X51.4110 Y43.0333 
G01 X51.5484 Y42.9334 
G01 X51.6686 Y42.8132 
G01 X51.7685 Y42.6758 
G01 X51.8456 Y42.5244 
G01 X51.8981 Y42.3628 
G01 X51.9247 Y42.1950 
G01 X51.9247 Y42.0250 
G01 X51.8981 Y41.8572 
G01 X51.8456 Y41.6956 
G01 X51.7685 Y41.5442 
G01 X51.6686 Y41.4068 
G01 X51.5484 Y41.2866 
G01 X51.4110 Y41.1867 
G01 X51.2596 Y41.1096 
G01 X51.0980 Y41.0571 
G01 X50.9302 Y41.0305 
G01 X48.8298 Y41.0305 
G01 X48.6620 Y41.0571 
G01 X48.5004 Y41.1096 
G01 X48.3490 Y41.1867 
G01 X48.2116 Y41.2866 
G01 X48.0914 Y41.4068 
G01 X47.9915 Y41.5442 
G01 X47.9144 Y41.6956 
G01 X47.8619 Y41.8572 
G01 X47.8353 Y42.0250 
G01 X47.8353 Y42.1950 
G01 X47.8619 Y42.3628 
G01 X47.9144 Y42.5244 
G01 X47.9915 Y42.6758 
G01 X48.0914 Y42.8132 
G01 X48.2116 Y42.9334 
G00 Z8.0000  
G00 X48.2116 Y40.3934 
G01 Z-0.1778 F254   
G01 X48.3490 Y40.4933 F508   
G01 X48.5004 Y40.5704 
G01 X48.6620 Y40.6229 
G01 X48.8298 Y40.6495 
G01 X50.9302 Y40.6495 
G01 X51.0980 Y40.6229 
G01 X51.2596 Y40.5704 
G01 X51.4110 Y40.4933 
G01 X51.5484 Y40.3934 
G01 X51.6686 Y40.2732 
G01 X51.7685 Y40.1358 
G01 X51.8456 Y39.9844 
G01 X51.8981 Y39.8228 
G01 X51.9247 Y39.6550 
G01 X51.9247 Y39.4850 
G01 X51.8981 Y39.3172 
G01 X51.8456 Y39.1556 
G01 X51.7685 Y39.0042 
G01 X51.6686 Y38.8668 
G01 X51.5484 Y38.7466 
G01 X51.4110 Y38.6467 
G01 X51.2596 Y38.5696 
G01 X51.0980 Y38.5171 
G01 X50.9302 Y38.4905 
G01 X48.8298 Y38.4905 
G01 X48.6620 Y38.5171 
G01 X48.5004 Y38.5696 
G01 X48.3490 Y38.6467 
G01 X48.2116 Y38.7466 
G01 X48.0914 Y38.8668 
G01 X47.9915 Y39.0042 
G01 X47.9144 Y39.1556 
G01 X47.8619 Y39.3172 
G01 X47.8353 Y39.4850 
G01 X47.8353 Y39.6550 
G01 X47.8619 Y39.8228 
G01 X47.9144 Y39.9844 
G01 X47.9915 Y40.1358 
G01 X48.0914 Y40.2732 
G01 X48.2116 Y40.3934 
G00 Z8.0000  
G00 X48.2116 Y37.8534 
G01 Z-0.1778 F254   
G01 X48.3490 Y37.9533 F508   
G01 X48.5004 Y38.0304 
G01 X48.6620 Y38.0829 
G01 X48.8298 Y38.1095 
G01 X50.9302 Y38.1095 
G01 X51.0980 Y38.0829 
G01 X51.2596 Y38.0304 
G01 X51.4110 Y37.9533 
G01 X51.5484 Y37.8534 
G01 X51.6686 Y37.7332 
G01 X51.7685 Y37.5958 
G01 X51.8456 Y37.4444 
G01 X51.8981 Y37.2828 
G01 X51.9247 Y37.1150 
G01 X51.9247 Y36.9450 
G01 X51.8981 Y36.7772 
G01 X51.8456 Y36.6156 
G01 X51.7685 Y36.4642 
G01 X51.6686 Y36.3268 
G01 X51.5484 Y36.2066 
G01 X51.4110 Y36.1067 
G01 X51.2596 Y36.0296 
G01 X51.0980 Y35.9771 
G01 X50.9302 Y35.9505 
G01 X48.8298 Y35.9505 
G01 X48.6620 Y35.9771 
G01 X48.5004 Y36.0296 
G01 X48.3490 Y36.1067 
G01 X48.2116 Y36.2066 
G01 X48.0914 Y36.3268 
G01 X47.9915 Y36.4642 
G01 X47.9144 Y36.6156 
G01 X47.8619 Y36.7772 
G01 X47.8353 Y36.9450 
G01 X47.8353 Y37.1150 
G01 X47.8619 Y37.2828 
G01 X47.9144 Y37.4444 
G01 X47.9915 Y37.5958 
G01 X48.0914 Y37.7332 
G01 X48.2116 Y37.8534 
G00 Z8.0000  
G00 X63.4516 Y37.8534 
G01 Z-0.1778 F254   
G01 X63.5890 Y37.9533 F508   
G01 X63.7404 Y38.0304 
G01 X63.9020 Y38.0829 
G01 X64.0698 Y38.1095 
G01 X66.1702 Y38.1095 
G01 X66.3380 Y38.0829 
G01 X66.4996 Y38.0304 
G01 X66.6510 Y37.9533 
G01 X66.7884 Y37.8534 
G01 X66.9086 Y37.7332 
G01 X67.0085 Y37.5958 
G01 X67.0856 Y37.4444 
G01 X67.1381 Y37.2828 
G01 X67.1647 Y37.1150 
G01 X67.1647 Y36.9450 
G01 X67.1381 Y36.7772 
G01 X67.0856 Y36.6156 
G01 X67.0085 Y36.4642 
G01 X66.9086 Y36.3268 
G01 X66.7884 Y36.2066 
G01 X66.6510 Y36.1067 
G01 X66.4996 Y36.0296 
G01 X66.3380 Y35.9771 
G01 X66.1702 Y35.9505 
G01 X64.0698 Y35.9505 
G01 X63.9020 Y35.9771 
G01 X63.7404 Y36.0296 
G01 X63.5890 Y36.1067 
G01 X63.4516 Y36.2066 
G01 X63.3314 Y36.3268 
G01 X63.2315 Y36.4642 
G01 X63.1544 Y36.6156 
G01 X63.1019 Y36.7772 
G01 X63.0753 Y36.9450 
G01 X63.0753 Y37.1150 
G01 X63.1019 Y37.2828 
G01 X63.1544 Y37.4444 
G01 X63.2315 Y37.5958 
G01 X63.3314 Y37.7332 
G01 X63.4516 Y37.8534 
G00 Z8.0000  
G00 X63.4516 Y38.7466 
G01 Z-0.1778 F254   
G01 X63.3314 Y38.8668 F508   
G01 X63.2315 Y39.0042 
G01 X63.1544 Y39.1556 
G01 X63.1019 Y39.3172 
G01 X63.0753 Y39.4850 
G01 X63.0753 Y39.6550 
G01 X63.1019 Y39.8228 
G01 X63.1544 Y39.9844 
G01 X63.2315 Y40.1358 
G01 X63.3314 Y40.2732 
G01 X63.4516 Y40.3934 
G01 X63.5890 Y40.4933 
G01 X63.7404 Y40.5704 
G01 X63.9020 Y40.6229 
G01 X64.0698 Y40.6495 
G01 X66.1702 Y40.6495 
G01 X66.3380 Y40.6229 
G01 X66.4996 Y40.5704 
G01 X66.6510 Y40.4933 
G01 X66.7884 Y40.3934 
G01 X66.9086 Y40.2732 
G01 X67.0085 Y40.1358 
G01 X67.0856 Y39.9844 
G01 X67.1381 Y39.8228 
G01 X67.1647 Y39.6550 
G01 X67.1647 Y39.4850 
G01 X67.1381 Y39.3172 
G01 X67.0856 Y39.1556 
G01 X67.0085 Y39.0042 
G01 X66.9086 Y38.8668 
G01 X66.7884 Y38.7466 
G01 X66.6510 Y38.6467 
G01 X66.4996 Y38.5696 
G01 X66.3380 Y38.5171 
G01 X66.1702 Y38.4905 
G01 X64.0698 Y38.4905 
G01 X63.9020 Y38.5171 
G01 X63.7404 Y38.5696 
G01 X63.5890 Y38.6467 
G01 X63.4516 Y38.7466 
G00 Z8.0000  
G00 X63.4516 Y41.2866 
G01 Z-0.1778 F254   
G01 X63.3314 Y41.4068 F508   
G01 X63.2315 Y41.5442 
G01 X63.1544 Y41.6956 
G01 X63.1019 Y41.8572 
G01 X63.0753 Y42.0250 
G01 X63.0753 Y42.1950 
G01 X63.1019 Y42.3628 
G01 X63.1544 Y42.5244 
G01 X63.2315 Y42.6758 
G01 X63.3314 Y42.8132 
G01 X63.4516 Y42.9334 
G01 X63.5890 Y43.0333 
G01 X63.7404 Y43.1104 
G01 X63.9020 Y43.1629 
G01 X64.0698 Y43.1895 
G01 X66.1702 Y43.1895 
G01 X66.3380 Y43.1629 
G01 X66.4996 Y43.1104 
G01 X66.6510 Y43.0333 
G01 X66.7884 Y42.9334 
G01 X66.9086 Y42.8132 
G01 X67.0085 Y42.6758 
G01 X67.0856 Y42.5244 
G01 X67.1381 Y42.3628 
G01 X67.1647 Y42.1950 
G01 X67.1647 Y42.0250 
G01 X67.1381 Y41.8572 
G01 X67.0856 Y41.6956 
G01 X67.0085 Y41.5442 
G01 X66.9086 Y41.4068 
G01 X66.7884 Y41.2866 
G01 X66.6510 Y41.1867 
G01 X66.4996 Y41.1096 
G01 X66.3380 Y41.0571 
G01 X66.1702 Y41.0305 
G01 X64.0698 Y41.0305 
G01 X63.9020 Y41.0571 
G01 X63.7404 Y41.1096 
G01 X63.5890 Y41.1867 
G01 X63.4516 Y41.2866 
G00 Z8.0000  
G00 X63.4516 Y43.8266 
G01 Z-0.1778 F254   
G01 X63.3314 Y43.9468 F508   
G01 X63.2315 Y44.0842 
G01 X63.1544 Y44.2356 
G01 X63.1019 Y44.3972 
G01 X63.0753 Y44.5650 
G01 X63.0753 Y44.7350 
G01 X63.1019 Y44.9028 
G01 X63.1544 Y45.0644 
G01 X63.2315 Y45.2158 
G01 X63.3314 Y45.3532 
G01 X63.4516 Y45.4734 
G01 X63.5890 Y45.5733 
G01 X63.7404 Y45.6504 
G01 X63.9020 Y45.7029 
G01 X64.0698 Y45.7295 
G01 X66.1702 Y45.7295 
G01 X66.3380 Y45.7029 
G01 X66.4996 Y45.6504 
G01 X66.6510 Y45.5733 
G01 X66.7884 Y45.4734 
G01 X66.9086 Y45.3532 
G01 X67.0085 Y45.2158 
G01 X67.0856 Y45.0644 
G01 X67.1381 Y44.9028 
G01 X67.1647 Y44.7350 
G01 X67.1647 Y44.5650 
G01 X67.1381 Y44.3972 
G01 X67.0856 Y44.2356 
G01 X67.0085 Y44.0842 
G01 X66.9086 Y43.9468 
G01 X66.7884 Y43.8266 
G01 X66.6510 Y43.7267 
G01 X66.4996 Y43.6496 
G01 X66.3380 Y43.5971 
G01 X66.1702 Y43.5705 
G01 X64.0698 Y43.5705 
G01 X63.9020 Y43.5971 
G01 X63.7404 Y43.6496 
G01 X63.5890 Y43.7267 
G01 X63.4516 Y43.8266 
G00 Z8.0000  
G00 X63.4516 Y46.3666 
G01 Z-0.1778 F254   
G01 X63.3314 Y46.4868 F508   
G01 X63.2315 Y46.6242 
G01 X63.1544 Y46.7756 
G01 X63.1019 Y46.9372 
G01 X63.0753 Y47.1050 
G01 X63.0753 Y47.2750 
G01 X63.1019 Y47.4428 
G01 X63.1544 Y47.6044 
G01 X63.2315 Y47.7558 
G01 X63.3314 Y47.8932 
G01 X63.4516 Y48.0134 
G01 X63.5890 Y48.1133 
G01 X63.7404 Y48.1904 
G01 X63.9020 Y48.2429 
G01 X64.0698 Y48.2695 
G01 X66.1702 Y48.2695 
G01 X66.3380 Y48.2429 
G01 X66.4996 Y48.1904 
G01 X66.6510 Y48.1133 
G01 X66.7884 Y48.0134 
G01 X66.9086 Y47.8932 
G01 X67.0085 Y47.7558 
G01 X67.0856 Y47.6044 
G01 X67.1381 Y47.4428 
G01 X67.1647 Y47.2750 
G01 X67.1647 Y47.1050 
G01 X67.1381 Y46.9372 
G01 X67.0856 Y46.7756 
G01 X67.0085 Y46.6242 
G01 X66.9086 Y46.4868 
G01 X66.7884 Y46.3666 
G01 X66.6510 Y46.2667 
G01 X66.4996 Y46.1896 
G01 X66.3380 Y46.1371 
G01 X66.1702 Y46.1105 
G01 X64.0698 Y46.1105 
G01 X63.9020 Y46.1371 
G01 X63.7404 Y46.1896 
G01 X63.5890 Y46.2667 
G01 X63.4516 Y46.3666 
G00 Z8.0000  
G00 X63.4516 Y48.9066 
G01 Z-0.1778 F254   
G01 X63.3314 Y49.0268 F508   
G01 X63.2315 Y49.1642 
G01 X63.1544 Y49.3156 
G01 X63.1019 Y49.4772 
G01 X63.0753 Y49.6450 
G01 X63.0753 Y49.8150 
G01 X63.1019 Y49.9828 
G01 X63.1544 Y50.1444 
G01 X63.2315 Y50.2958 
G01 X63.3314 Y50.4332 
G01 X63.4516 Y50.5534 
G01 X63.5890 Y50.6533 
G01 X63.7404 Y50.7304 
G01 X63.9020 Y50.7829 
G01 X64.0698 Y50.8095 
G01 X66.1702 Y50.8095 
G01 X66.3380 Y50.7829 
G01 X66.4996 Y50.7304 
G01 X66.6510 Y50.6533 
G01 X66.7884 Y50.5534 
G01 X66.9086 Y50.4332 
G01 X67.0085 Y50.2958 
G01 X67.0856 Y50.1444 
G01 X67.1381 Y49.9828 
G01 X67.1647 Y49.8150 
G01 X67.1647 Y49.6450 
G01 X67.1381 Y49.4772 
G01 X67.0856 Y49.3156 
G01 X67.0085 Y49.1642 
G01 X66.9086 Y49.0268 
G01 X66.7884 Y48.9066 
G01 X66.6510 Y48.8067 
G01 X66.4996 Y48.7296 
G01 X66.3380 Y48.6771 
G01 X66.1702 Y48.6505 
G01 X64.0698 Y48.6505 
G01 X63.9020 Y48.6771 
G01 X63.7404 Y48.7296 
G01 X63.5890 Y48.8067 
G01 X63.4516 Y48.9066 
G00 Z8.0000  
G00 X63.4516 Y51.4466 
G01 Z-0.1778 F254   
G01 X63.3314 Y51.5668 F508   
G01 X63.2315 Y51.7042 
G01 X63.1544 Y51.8556 
G01 X63.1019 Y52.0172 
G01 X63.0753 Y52.1850 
G01 X63.0753 Y52.3550 
G01 X63.1019 Y52.5228 
G01 X63.1544 Y52.6844 
G01 X63.2315 Y52.8358 
G01 X63.3314 Y52.9732 
G01 X63.4516 Y53.0934 
G01 X63.5890 Y53.1933 
G01 X63.7404 Y53.2704 
G01 X63.9020 Y53.3229 
G01 X64.0698 Y53.3495 
G01 X66.1702 Y53.3495 
G01 X66.3380 Y53.3229 
G01 X66.4996 Y53.2704 
G01 X66.6510 Y53.1933 
G01 X66.7884 Y53.0934 
G01 X66.9086 Y52.9732 
G01 X67.0085 Y52.8358 
G01 X67.0856 Y52.6844 
G01 X67.1381 Y52.5228 
G01 X67.1647 Y52.3550 
G01 X67.1647 Y52.1850 
G01 X67.1381 Y52.0172 
G01 X67.0856 Y51.8556 
G01 X67.0085 Y51.7042 
G01 X66.9086 Y51.5668 
G01 X66.7884 Y51.4466 
G01 X66.6510 Y51.3467 
G01 X66.4996 Y51.2696 
G01 X66.3380 Y51.2171 
G01 X66.1702 Y51.1905 
G01 X64.0698 Y51.1905 
G01 X63.9020 Y51.2171 
G01 X63.7404 Y51.2696 
G01 X63.5890 Y51.3467 
G01 X63.4516 Y51.4466 
G00 Z8.0000  
G00 X63.4516 Y53.9866 
G01 Z-0.1778 F254   
G01 X63.3314 Y54.1068 F508   
G01 X63.2315 Y54.2442 
G01 X63.1544 Y54.3956 
G01 X63.1019 Y54.5572 
G01 X63.0753 Y54.7250 
G01 X63.0753 Y54.8950 
G01 X63.1019 Y55.0628 
G01 X63.1544 Y55.2244 
G01 X63.2315 Y55.3758 
G01 X63.3314 Y55.5132 
G01 X63.4516 Y55.6334 
G01 X63.5890 Y55.7333 
G01 X63.7404 Y55.8104 
G01 X63.9020 Y55.8629 
G01 X64.0698 Y55.8895 
G01 X66.1702 Y55.8895 
G01 X66.3380 Y55.8629 
G01 X66.4996 Y55.8104 
G01 X66.6510 Y55.7333 
G01 X66.7884 Y55.6334 
G01 X66.9086 Y55.5132 
G01 X67.0085 Y55.3758 
G01 X67.0856 Y55.2244 
G01 X67.1381 Y55.0628 
G01 X67.1647 Y54.8950 
G01 X67.1647 Y54.7250 
G01 X67.1381 Y54.5572 
G01 X67.0856 Y54.3956 
G01 X67.0085 Y54.2442 
G01 X66.9086 Y54.1068 
G01 X66.7884 Y53.9866 
G01 X66.6510 Y53.8867 
G01 X66.4996 Y53.8096 
G01 X66.3380 Y53.7571 
G01 X66.1702 Y53.7305 
G01 X64.0698 Y53.7305 
G01 X63.9020 Y53.7571 
G01 X63.7404 Y53.8096 
G01 X63.5890 Y53.8867 
G01 X63.4516 Y53.9866 
G00 Z8.0000  
G00 X63.4516 Y56.5266 
G01 Z-0.1778 F254   
G01 X63.3314 Y56.6468 F508   
G01 X63.2315 Y56.7842 
G01 X63.1544 Y56.9356 
G01 X63.1019 Y57.0972 
G01 X63.0753 Y57.2650 
G01 X63.0753 Y57.4350 
G01 X63.1019 Y57.6028 
G01 X63.1544 Y57.7644 
G01 X63.2315 Y57.9158 
G01 X63.3314 Y58.0532 
G01 X63.4516 Y58.1734 
G01 X63.5890 Y58.2733 
G01 X63.7404 Y58.3504 
G01 X63.9020 Y58.4029 
G01 X64.0698 Y58.4295 
G01 X66.1702 Y58.4295 
G01 X66.3380 Y58.4029 
G01 X66.4996 Y58.3504 
G01 X66.6510 Y58.2733 
G01 X66.7884 Y58.1734 
G01 X66.9086 Y58.0532 
G01 X67.0085 Y57.9158 
G01 X67.0856 Y57.7644 
G01 X67.1381 Y57.6028 
G01 X67.1647 Y57.4350 
G01 X67.1647 Y57.2650 
G01 X67.1381 Y57.0972 
G01 X67.0856 Y56.9356 
G01 X67.0085 Y56.7842 
G01 X66.9086 Y56.6468 
G01 X66.7884 Y56.5266 
G01 X66.6510 Y56.4267 
G01 X66.4996 Y56.3496 
G01 X66.3380 Y56.2971 
G01 X66.1702 Y56.2705 
G01 X64.0698 Y56.2705 
G01 X63.9020 Y56.2971 
G01 X63.7404 Y56.3496 
G01 X63.5890 Y56.4267 
G01 X63.4516 Y56.5266 
G00 Z8.0000  
G00 X63.4516 Y59.0666 
G01 Z-0.1778 F254   
G01 X63.3314 Y59.1868 F508   
G01 X63.2315 Y59.3242 
G01 X63.1544 Y59.4756 
G01 X63.1019 Y59.6372 
G01 X63.0753 Y59.8050 
G01 X63.0753 Y59.9750 
G01 X63.1019 Y60.1428 
G01 X63.1544 Y60.3044 
G01 X63.2315 Y60.4558 
G01 X63.3314 Y60.5932 
G01 X63.4516 Y60.7134 
G01 X63.5890 Y60.8133 
G01 X63.7404 Y60.8904 
G01 X63.9020 Y60.9429 
G01 X64.0698 Y60.9695 
G01 X66.1702 Y60.9695 
G01 X66.3380 Y60.9429 
G01 X66.4996 Y60.8904 
G01 X66.6510 Y60.8133 
G01 X66.7884 Y60.7134 
G01 X66.9086 Y60.5932 
G01 X67.0085 Y60.4558 
G01 X67.0856 Y60.3044 
G01 X67.1381 Y60.1428 
G01 X67.1647 Y59.9750 
G01 X67.1647 Y59.8050 
G01 X67.1381 Y59.6372 
G01 X67.0856 Y59.4756 
G01 X67.0085 Y59.3242 
G01 X66.9086 Y59.1868 
G01 X66.7884 Y59.0666 
G01 X66.6510 Y58.9667 
G01 X66.4996 Y58.8896 
G01 X66.3380 Y58.8371 
G01 X66.1702 Y58.8105 
G01 X64.0698 Y58.8105 
G01 X63.9020 Y58.8371 
G01 X63.7404 Y58.8896 
G01 X63.5890 Y58.9667 
G01 X63.4516 Y59.0666 
G00 Z8.0000  
G00 X63.4516 Y61.6066 
G01 Z-0.1778 F254   
G01 X63.3314 Y61.7268 F508   
G01 X63.2315 Y61.8642 
G01 X63.1544 Y62.0156 
G01 X63.1019 Y62.1772 
G01 X63.0753 Y62.3450 
G01 X63.0753 Y62.5150 
G01 X63.1019 Y62.6828 
G01 X63.1544 Y62.8444 
G01 X63.2315 Y62.9958 
G01 X63.3314 Y63.1332 
G01 X63.4516 Y63.2534 
G01 X63.5890 Y63.3533 
G01 X63.7404 Y63.4304 
G01 X63.9020 Y63.4829 
G01 X64.0698 Y63.5095 
G01 X66.1702 Y63.5095 
G01 X66.3380 Y63.4829 
G01 X66.4996 Y63.4304 
G01 X66.6510 Y63.3533 
G01 X66.7884 Y63.2534 
G01 X66.9086 Y63.1332 
G01 X67.0085 Y62.9958 
G01 X67.0856 Y62.8444 
G01 X67.1381 Y62.6828 
G01 X67.1647 Y62.5150 
G01 X67.1647 Y62.3450 
G01 X67.1381 Y62.1772 
G01 X67.0856 Y62.0156 
G01 X67.0085 Y61.8642 
G01 X66.9086 Y61.7268 
G01 X66.7884 Y61.6066 
G01 X66.6510 Y61.5067 
G01 X66.4996 Y61.4296 
G01 X66.3380 Y61.3771 
G01 X66.1702 Y61.3505 
G01 X64.0698 Y61.3505 
G01 X63.9020 Y61.3771 
G01 X63.7404 Y61.4296 
G01 X63.5890 Y61.5067 
G01 X63.4516 Y61.6066 
G00 Z8.0000  
G00 X63.4516 Y64.1466 
G01 Z-0.1778 F254   
G01 X63.3314 Y64.2668 F508   
G01 X63.2315 Y64.4042 
G01 X63.1544 Y64.5556 
G01 X63.1019 Y64.7172 
G01 X63.0753 Y64.8850 
G01 X63.0753 Y65.0550 
G01 X63.1019 Y65.2228 
G01 X63.1544 Y65.3844 
G01 X63.2315 Y65.5358 
G01 X63.3314 Y65.6732 
G01 X63.4516 Y65.7934 
G01 X63.5890 Y65.8933 
G01 X63.7404 Y65.9704 
G01 X63.9020 Y66.0229 
G01 X64.0698 Y66.0495 
G01 X66.1702 Y66.0495 
G01 X66.3380 Y66.0229 
G01 X66.4996 Y65.9704 
G01 X66.6510 Y65.8933 
G01 X66.7884 Y65.7934 
G01 X66.9086 Y65.6732 
G01 X67.0085 Y65.5358 
G01 X67.0856 Y65.3844 
G01 X67.1381 Y65.2228 
G01 X67.1647 Y65.0550 
G01 X67.1647 Y64.8850 
G01 X67.1381 Y64.7172 
G01 X67.0856 Y64.5556 
G01 X67.0085 Y64.4042 
G01 X66.9086 Y64.2668 
G01 X66.7884 Y64.1466 
G01 X66.6510 Y64.0467 
G01 X66.4996 Y63.9696 
G01 X66.3380 Y63.9171 
G01 X66.1702 Y63.8905 
G01 X64.0698 Y63.8905 
G01 X63.9020 Y63.9171 
G01 X63.7404 Y63.9696 
G01 X63.5890 Y64.0467 
G01 X63.4516 Y64.1466 
G00 Z8.0000  
G00 X63.4516 Y66.6866 
G01 Z-0.1778 F254   
G01 X63.3314 Y66.8068 F508   
G01 X63.2315 Y66.9442 
G01 X63.1544 Y67.0956 
G01 X63.1019 Y67.2572 
G01 X63.0753 Y67.4250 
G01 X63.0753 Y67.5950 
G01 X63.1019 Y67.7628 
G01 X63.1544 Y67.9244 
G01 X63.2315 Y68.0758 
G01 X63.3314 Y68.2132 
G01 X63.4516 Y68.3334 
G01 X63.5890 Y68.4333 
G01 X63.7404 Y68.5104 
G01 X63.9020 Y68.5629 
G01 X64.0698 Y68.5895 
G01 X66.1702 Y68.5895 
G01 X66.3380 Y68.5629 
G01 X66.4996 Y68.5104 
G01 X66.6510 Y68.4333 
G01 X66.7884 Y68.3334 
G01 X66.9086 Y68.2132 
G01 X67.0085 Y68.0758 
G01 X67.0856 Y67.9244 
G01 X67.1381 Y67.7628 
G01 X67.1647 Y67.5950 
G01 X67.1647 Y67.4250 
G01 X67.1381 Y67.2572 
G01 X67.0856 Y67.0956 
G01 X67.0085 Y66.9442 
G01 X66.9086 Y66.8068 
G01 X66.7884 Y66.6866 
G01 X66.6510 Y66.5867 
G01 X66.4996 Y66.5096 
G01 X66.3380 Y66.4571 
G01 X66.1702 Y66.4305 
G01 X64.0698 Y66.4305 
G01 X63.9020 Y66.4571 
G01 X63.7404 Y66.5096 
G01 X63.5890 Y66.5867 
G01 X63.4516 Y66.6866 
G00 Z8.0000  
G00 X63.4516 Y69.2266 
G01 Z-0.1778 F254   
G01 X63.3314 Y69.3468 F508   
G01 X63.2315 Y69.4842 
G01 X63.1544 Y69.6356 
G01 X63.1019 Y69.7972 
G01 X63.0753 Y69.9650 
G01 X63.0753 Y70.1350 
G01 X63.1019 Y70.3028 
G01 X63.1544 Y70.4644 
G01 X63.2315 Y70.6158 
G01 X63.3314 Y70.7532 
G01 X63.4516 Y70.8734 
G01 X63.5890 Y70.9733 
G01 X63.7404 Y71.0504 
G01 X63.9020 Y71.1029 
G01 X64.0698 Y71.1295 
G01 X66.1702 Y71.1295 
G01 X66.3380 Y71.1029 
G01 X66.4996 Y71.0504 
G01 X66.6510 Y70.9733 
G01 X66.7884 Y70.8734 
G01 X66.9086 Y70.7532 
G01 X67.0085 Y70.6158 
G01 X67.0856 Y70.4644 
G01 X67.1381 Y70.3028 
G01 X67.1647 Y70.1350 
G01 X67.1647 Y69.9650 
G01 X67.1381 Y69.7972 
G01 X67.0856 Y69.6356 
G01 X67.0085 Y69.4842 
G01 X66.9086 Y69.3468 
G01 X66.7884 Y69.2266 
G01 X66.6510 Y69.1267 
G01 X66.4996 Y69.0496 
G01 X66.3380 Y68.9971 
G01 X66.1702 Y68.9705 
G01 X64.0698 Y68.9705 
G01 X63.9020 Y68.9971 
G01 X63.7404 Y69.0496 
G01 X63.5890 Y69.1267 
G01 X63.4516 Y69.2266 
G00 Z8.0000  
G00 X63.4516 Y71.7666 
G01 Z-0.1778 F254   
G01 X63.3314 Y71.8868 F508   
G01 X63.2315 Y72.0242 
G01 X63.1544 Y72.1756 
G01 X63.1019 Y72.3372 
G01 X63.0753 Y72.5050 
G01 X63.0753 Y72.6750 
G01 X63.1019 Y72.8428 
G01 X63.1544 Y73.0044 
G01 X63.2315 Y73.1558 
G01 X63.3314 Y73.2932 
G01 X63.4516 Y73.4134 
G01 X63.5890 Y73.5133 
G01 X63.7404 Y73.5904 
G01 X63.9020 Y73.6429 
G01 X64.0698 Y73.6695 
G01 X66.1702 Y73.6695 
G01 X66.3380 Y73.6429 
G01 X66.4996 Y73.5904 
G01 X66.6510 Y73.5133 
G01 X66.7884 Y73.4134 
G01 X66.9086 Y73.2932 
G01 X67.0085 Y73.1558 
G01 X67.0856 Y73.0044 
G01 X67.1381 Y72.8428 
G01 X67.1647 Y72.6750 
G01 X67.1647 Y72.5050 
G01 X67.1381 Y72.3372 
G01 X67.0856 Y72.1756 
G01 X67.0085 Y72.0242 
G01 X66.9086 Y71.8868 
G01 X66.7884 Y71.7666 
G01 X66.6510 Y71.6667 
G01 X66.4996 Y71.5896 
G01 X66.3380 Y71.5371 
G01 X66.1702 Y71.5105 
G01 X64.0698 Y71.5105 
G01 X63.9020 Y71.5371 
G01 X63.7404 Y71.5896 
G01 X63.5890 Y71.6667 
G01 X63.4516 Y71.7666 
G00 Z8.0000  
G00 X63.4516 Y74.3066 
G01 Z-0.1778 F254   
G01 X63.3314 Y74.4268 F508   
G01 X63.2315 Y74.5642 
G01 X63.1544 Y74.7156 
G01 X63.1019 Y74.8772 
G01 X63.0753 Y75.0450 
G01 X63.0753 Y75.2150 
G01 X63.1019 Y75.3828 
G01 X63.1544 Y75.5444 
G01 X63.2315 Y75.6958 
G01 X63.3314 Y75.8332 
G01 X63.4516 Y75.9534 
G01 X63.5890 Y76.0533 
G01 X63.7404 Y76.1304 
G01 X63.9020 Y76.1829 
G01 X64.0698 Y76.2095 
G01 X66.1702 Y76.2095 
G01 X66.3380 Y76.1829 
G01 X66.4996 Y76.1304 
G01 X66.6510 Y76.0533 
G01 X66.7884 Y75.9534 
G01 X66.9086 Y75.8332 
G01 X67.0085 Y75.6958 
G01 X67.0856 Y75.5444 
G01 X67.1381 Y75.3828 
G01 X67.1647 Y75.2150 
G01 X67.1647 Y75.0450 
G01 X67.1381 Y74.8772 
G01 X67.0856 Y74.7156 
G01 X67.0085 Y74.5642 
G01 X66.9086 Y74.4268 
G01 X66.7884 Y74.3066 
G01 X66.6510 Y74.2067 
G01 X66.4996 Y74.1296 
G01 X66.3380 Y74.0771 
G01 X66.1702 Y74.0505 
G01 X64.0698 Y74.0505 
G01 X63.9020 Y74.0771 
G01 X63.7404 Y74.1296 
G01 X63.5890 Y74.2067 
G01 X63.4516 Y74.3066 
G00 Z8.0000  
G00 X63.4516 Y76.8466 
G01 Z-0.1778 F254   
G01 X63.3314 Y76.9668 F508   
G01 X63.2315 Y77.1042 
G01 X63.1544 Y77.2556 
G01 X63.1019 Y77.4172 
G01 X63.0753 Y77.5850 
G01 X63.0753 Y77.7550 
G01 X63.1019 Y77.9228 
G01 X63.1544 Y78.0844 
G01 X63.2315 Y78.2358 
G01 X63.3314 Y78.3732 
G01 X63.4516 Y78.4934 
G01 X63.5890 Y78.5933 
G01 X63.7404 Y78.6704 
G01 X63.9020 Y78.7229 
G01 X64.0698 Y78.7495 
G01 X66.1702 Y78.7495 
G01 X66.3380 Y78.7229 
G01 X66.4996 Y78.6704 
G01 X66.6510 Y78.5933 
G01 X66.7884 Y78.4934 
G01 X66.9086 Y78.3732 
G01 X67.0085 Y78.2358 
G01 X67.0856 Y78.0844 
G01 X67.1381 Y77.9228 
G01 X67.1647 Y77.7550 
G01 X67.1647 Y77.5850 
G01 X67.1381 Y77.4172 
G01 X67.0856 Y77.2556 
G01 X67.0085 Y77.1042 
G01 X66.9086 Y76.9668 
G01 X66.7884 Y76.8466 
G01 X66.6510 Y76.7467 
G01 X66.4996 Y76.6696 
G01 X66.3380 Y76.6171 
G01 X66.1702 Y76.5905 
G01 X64.0698 Y76.5905 
G01 X63.9020 Y76.6171 
G01 X63.7404 Y76.6696 
G01 X63.5890 Y76.7467 
G01 X63.4516 Y76.8466 
G00 Z8.0000  
G00 X70.1134 Y70.8910 
G01 Z-0.1778 F254   
G01 X70.1005 Y70.8732 F508   
G01 X70.0905 Y70.8536 
G01 X70.0837 Y70.8327 
G01 X70.0803 Y70.8110 
G01 X70.0803 Y70.6094 
G01 X70.0833 Y70.5812 
G01 X70.0803 Y70.5246 
G01 X70.0803 Y70.4679 
G01 X70.0759 Y70.4398 
G01 X70.0744 Y70.4115 
G01 X70.0626 Y70.3560 
G01 X70.0537 Y70.3000 
G01 X70.0449 Y70.2730 
G01 X70.0390 Y70.2453 
G01 X70.0187 Y70.1924 
G01 X70.0012 Y70.1384 
G01 X69.9883 Y70.1132 
G01 X69.9781 Y70.0866 
G01 X69.9570 Y70.0500 
G01 X69.9781 Y70.0133 
G01 X69.9883 Y69.9868 
G01 X70.0012 Y69.9616 
G01 X70.0187 Y69.9076 
G01 X70.0390 Y69.8547 
G01 X70.0449 Y69.8269 
G01 X70.0537 Y69.7999 
G01 X70.0626 Y69.7440 
G01 X70.0744 Y69.6885 
G01 X70.0759 Y69.6602 
G01 X70.0803 Y69.6321 
G01 X70.0803 Y69.5754 
G01 X70.0833 Y69.5188 
G01 X70.0803 Y69.4906 
G01 X70.0803 Y68.3890 
G01 X70.0837 Y68.3673 
G01 X70.0905 Y68.3464 
G01 X70.1005 Y68.3268 
G01 X70.1134 Y68.3090 
G01 X70.1290 Y68.2934 
G01 X70.1468 Y68.2805 
G01 X70.1664 Y68.2705 
G01 X70.1873 Y68.2637 
G01 X70.2090 Y68.2603 
G01 X70.8405 Y68.2603 
G01 X70.8405 Y68.2857 
G01 X70.1973 Y68.2857 
G01 X70.1553 Y68.3031 
G01 X70.1231 Y68.3353 
G01 X70.1057 Y68.3773 
G01 X70.1057 Y70.8227 
G01 X70.1231 Y70.8647 
G01 X70.1553 Y70.8969 
G01 X70.1973 Y70.9143 
G01 X70.8405 Y70.9143 
G01 X70.8405 Y70.9397 
G01 X70.2090 Y70.9397 
G01 X70.1873 Y70.9363 
G01 X70.1664 Y70.9295 
G01 X70.1468 Y70.9195 
G01 X70.1290 Y70.9066 
G01 X70.1134 Y70.8910 
G00 Z8.0000  
G00 X72.9995 Y70.9143 
G01 Z-0.1778 F254   
G01 X73.6427 Y70.9143 F508   
G01 X73.6847 Y70.8969 
G01 X73.7169 Y70.8647 
G01 X73.7343 Y70.8227 
G01 X73.7343 Y70.6795 
G01 X73.7597 Y70.6795 
G01 X73.7597 Y70.8110 
G01 X73.7563 Y70.8327 
G01 X73.7495 Y70.8536 
G01 X73.7395 Y70.8732 
G01 X73.7266 Y70.8910 
G01 X73.7110 Y70.9066 
G01 X73.6932 Y70.9195 
G01 X73.6736 Y70.9295 
G01 X73.6527 Y70.9363 
G01 X73.6310 Y70.9397 
G01 X72.9995 Y70.9397 
G01 X72.9995 Y70.9143 
G00 Z8.0000  
G00 X72.9995 Y68.2857 
G01 Z-0.1778 F254   
G01 X72.9995 Y68.2603 F508   
G01 X73.6310 Y68.2603 
G01 X73.6527 Y68.2637 
G01 X73.6736 Y68.2705 
G01 X73.6932 Y68.2805 
G01 X73.7110 Y68.2934 
G01 X73.7266 Y68.3090 
G01 X73.7395 Y68.3268 
G01 X73.7495 Y68.3464 
G01 X73.7563 Y68.3673 
G01 X73.7597 Y68.3890 
G01 X73.7597 Y68.5205 
G01 X73.7343 Y68.5205 
G01 X73.7343 Y68.3773 
G01 X73.7169 Y68.3353 
G01 X73.6847 Y68.3031 
G01 X73.6427 Y68.2857 
G01 X72.9995 Y68.2857 
G00 Z8.0000  
G00 X85.1290 Y68.2934 
G01 Z-0.1778 F254   
G01 X85.1468 Y68.2805 F508   
G01 X85.1664 Y68.2705 
G01 X85.1873 Y68.2637 
G01 X85.2090 Y68.2603 
G01 X85.8405 Y68.2603 
G01 X85.8405 Y68.2857 
G01 X85.1973 Y68.2857 
G01 X85.1553 Y68.3031 
G01 X85.1231 Y68.3353 
G01 X85.1057 Y68.3773 
G01 X85.1057 Y68.5205 
G01 X85.0803 Y68.5205 
G01 X85.0803 Y68.3890 
G01 X85.0837 Y68.3673 
G01 X85.0905 Y68.3464 
G01 X85.1005 Y68.3268 
G01 X85.1134 Y68.3090 
G01 X85.1290 Y68.2934 
G00 Z8.0000  
G00 X85.1057 Y70.6795 
G01 Z-0.1778 F254   
G01 X85.1057 Y70.8227 F508   
G01 X85.1231 Y70.8647 
G01 X85.1553 Y70.8969 
G01 X85.1973 Y70.9143 
G01 X85.8405 Y70.9143 
G01 X85.8405 Y70.9397 
G01 X85.2090 Y70.9397 
G01 X85.1873 Y70.9363 
G01 X85.1664 Y70.9295 
G01 X85.1468 Y70.9195 
G01 X85.1290 Y70.9066 
G01 X85.1134 Y70.8910 
G01 X85.1005 Y70.8732 
G01 X85.0905 Y70.8536 
G01 X85.0837 Y70.8327 
G01 X85.0803 Y70.8110 
G01 X85.0803 Y70.6795 
G01 X85.1057 Y70.6795 
G00 Z8.0000  
G00 X87.9995 Y70.9143 
G01 Z-0.1778 F254   
G01 X88.6427 Y70.9143 F508   
G01 X88.6847 Y70.8969 
G01 X88.7169 Y70.8647 
G01 X88.7343 Y70.8227 
G01 X88.7343 Y70.6795 
G01 X88.7597 Y70.6795 
G01 X88.7597 Y70.8110 
G01 X88.7563 Y70.8327 
G01 X88.7495 Y70.8536 
G01 X88.7395 Y70.8732 
G01 X88.7266 Y70.8910 
G01 X88.7110 Y70.9066 
G01 X88.6932 Y70.9195 
G01 X88.6736 Y70.9295 
G01 X88.6527 Y70.9363 
G01 X88.6310 Y70.9397 
G01 X87.9995 Y70.9397 
G01 X87.9995 Y70.9143 
G00 Z8.0000  
G00 X87.9995 Y68.2857 
G01 Z-0.1778 F254   
G01 X87.9995 Y68.2603 F508   
G01 X88.6310 Y68.2603 
G01 X88.6527 Y68.2637 
G01 X88.6736 Y68.2705 
G01 X88.6932 Y68.2805 
G01 X88.7110 Y68.2934 
G01 X88.7266 Y68.3090 
G01 X88.7395 Y68.3268 
G01 X88.7495 Y68.3464 
G01 X88.7563 Y68.3673 
G01 X88.7597 Y68.3890 
G01 X88.7597 Y68.5205 
G01 X88.7343 Y68.5205 
G01 X88.7343 Y68.3773 
G01 X88.7169 Y68.3353 
G01 X88.6847 Y68.3031 
G01 X88.6427 Y68.2857 
G01 X87.9995 Y68.2857 
G00 Z8.0000  
G00 X88.7994 Y64.7017 
G01 Z-0.1778 F254   
G01 X85.0406 Y64.7017 F508   
G01 X84.7092 Y64.5644 
G01 X84.4556 Y64.3108 
G01 X84.3183 Y63.9794 
G01 X84.3183 Y61.2206 
G01 X84.4556 Y60.8892 
G01 X84.7092 Y60.6356 
G01 X85.0406 Y60.4983 
G01 X88.7994 Y60.4983 
G01 X89.1308 Y60.6356 
G01 X89.3844 Y60.8892 
G01 X89.5217 Y61.2206 
G01 X89.5217 Y63.9794 
G01 X89.3844 Y64.3108 
G01 X89.1308 Y64.5644 
G01 X88.7994 Y64.7017 
G00 Z8.0000  
G00 X88.7169 Y63.8647 
G01 Z-0.1778 F254   
G01 X88.7343 Y63.8227 F508   
G01 X88.7343 Y61.3773 
G01 X88.7169 Y61.3353 
G01 X88.6847 Y61.3031 
G01 X88.6427 Y61.2857 
G01 X85.1973 Y61.2857 
G01 X85.1553 Y61.3031 
G01 X85.1231 Y61.3353 
G01 X85.1057 Y61.3773 
G01 X85.1057 Y63.8227 
G01 X85.1231 Y63.8647 
G01 X85.1553 Y63.8969 
G01 X85.1973 Y63.9143 
G01 X88.6427 Y63.9143 
G01 X88.6847 Y63.8969 
G01 X88.7169 Y63.8647 
G00 Z8.0000  
G00 X87.0710 Y53.8616 
G01 Z-0.1778 F254   
G01 X87.0532 Y53.8745 F508   
G01 X87.0336 Y53.8845 
G01 X87.0127 Y53.8913 
G01 X86.9910 Y53.8947 
G01 X86.3595 Y53.8947 
G01 X86.3595 Y53.8693 
G01 X87.0027 Y53.8693 
G01 X87.0447 Y53.8519 
G01 X87.0769 Y53.8197 
G01 X87.0943 Y53.7777 
G01 X87.0943 Y53.6345 
G01 X87.1197 Y53.6345 
G01 X87.1197 Y53.7660 
G01 X87.1163 Y53.7877 
G01 X87.1095 Y53.8086 
G01 X87.0995 Y53.8282 
G01 X87.0866 Y53.8460 
G01 X87.0710 Y53.8616 
G00 Z8.0000  
G00 X87.0943 Y51.4755 
G01 Z-0.1778 F254   
G01 X87.0943 Y51.3323 F508   
G01 X87.0769 Y51.2903 
G01 X87.0447 Y51.2581 
G01 X87.0027 Y51.2407 
G01 X86.3595 Y51.2407 
G01 X86.3595 Y51.2153 
G01 X86.9910 Y51.2153 
G01 X87.0127 Y51.2187 
G01 X87.0336 Y51.2255 
G01 X87.0532 Y51.2355 
G01 X87.0710 Y51.2484 
G01 X87.0866 Y51.2640 
G01 X87.0995 Y51.2818 
G01 X87.1095 Y51.3014 
G01 X87.1163 Y51.3223 
G01 X87.1197 Y51.3440 
G01 X87.1197 Y51.4755 
G01 X87.0943 Y51.4755 
G00 Z8.0000  
G00 X84.2005 Y51.2407 
G01 Z-0.1778 F254   
G01 X83.5573 Y51.2407 F508   
G01 X83.5153 Y51.2581 
G01 X83.4831 Y51.2903 
G01 X83.4657 Y51.3323 
G01 X83.4657 Y51.4755 
G01 X83.4403 Y51.4755 
G01 X83.4403 Y51.3440 
G01 X83.4437 Y51.3223 
G01 X83.4505 Y51.3014 
G01 X83.4605 Y51.2818 
G01 X83.4734 Y51.2640 
G01 X83.4890 Y51.2484 
G01 X83.5068 Y51.2355 
G01 X83.5264 Y51.2255 
G01 X83.5473 Y51.2187 
G01 X83.5690 Y51.2153 
G01 X84.2005 Y51.2153 
G01 X84.2005 Y51.2407 
G00 Z8.0000  
G00 X84.2005 Y53.8693 
G01 Z-0.1778 F254   
G01 X84.2005 Y53.8947 F508   
G01 X83.5690 Y53.8947 
G01 X83.5473 Y53.8913 
G01 X83.5264 Y53.8845 
G01 X83.5068 Y53.8745 
G01 X83.4890 Y53.8616 
G01 X83.4734 Y53.8460 
G01 X83.4605 Y53.8282 
G01 X83.4505 Y53.8086 
G01 X83.4437 Y53.7877 
G01 X83.4403 Y53.7660 
G01 X83.4403 Y53.6345 
G01 X83.4657 Y53.6345 
G01 X83.4657 Y53.7777 
G01 X83.4831 Y53.8197 
G01 X83.5153 Y53.8519 
G01 X83.5573 Y53.8693 
G01 X84.2005 Y53.8693 
G00 Z8.0000  
G00 X98.4734 Y53.8460 
G01 Z-0.1778 F254   
G01 X98.4605 Y53.8282 F508   
G01 X98.4505 Y53.8086 
G01 X98.4437 Y53.7877 
G01 X98.4403 Y53.7660 
G01 X98.4403 Y53.6345 
G01 X98.4657 Y53.6345 
G01 X98.4657 Y53.7777 
G01 X98.4831 Y53.8197 
G01 X98.5153 Y53.8519 
G01 X98.5573 Y53.8693 
G01 X99.2005 Y53.8693 
G01 X99.2005 Y53.8947 
G01 X98.5690 Y53.8947 
G01 X98.5473 Y53.8913 
G01 X98.5264 Y53.8845 
G01 X98.5068 Y53.8745 
G01 X98.4890 Y53.8616 
G01 X98.4734 Y53.8460 
G00 Z8.0000  
G00 X98.4657 Y51.4755 
G01 Z-0.1778 F254   
G01 X98.4403 Y51.4755 F508   
G01 X98.4403 Y51.3440 
G01 X98.4437 Y51.3223 
G01 X98.4505 Y51.3014 
G01 X98.4605 Y51.2818 
G01 X98.4734 Y51.2640 
G01 X98.4890 Y51.2484 
G01 X98.5068 Y51.2355 
G01 X98.5264 Y51.2255 
G01 X98.5473 Y51.2187 
G01 X98.5690 Y51.2153 
G01 X99.2005 Y51.2153 
G01 X99.2005 Y51.2407 
G01 X98.5573 Y51.2407 
G01 X98.5153 Y51.2581 
G01 X98.4831 Y51.2903 
G01 X98.4657 Y51.3323 
G01 X98.4657 Y51.4755 
G00 Z8.0000  
G00 X101.3595 Y51.2407 
G01 Z-0.1778 F254   
G01 X101.3595 Y51.2153 F508   
G01 X101.9910 Y51.2153 
G01 X102.0127 Y51.2187 
G01 X102.0336 Y51.2255 
G01 X102.0532 Y51.2355 
G01 X102.0710 Y51.2484 
G01 X102.0866 Y51.2640 
G01 X102.0995 Y51.2818 
G01 X102.1095 Y51.3014 
G01 X102.1163 Y51.3223 
G01 X102.1197 Y51.3440 
G01 X102.1197 Y51.4755 
G01 X102.0943 Y51.4755 
G01 X102.0943 Y51.3323 
G01 X102.0769 Y51.2903 
G01 X102.0447 Y51.2581 
G01 X102.0027 Y51.2407 
G01 X101.3595 Y51.2407 
G00 Z8.0000  
G00 X101.3595 Y53.8693 
G01 Z-0.1778 F254   
G01 X102.0027 Y53.8693 F508   
G01 X102.0447 Y53.8519 
G01 X102.0769 Y53.8197 
G01 X102.0943 Y53.7777 
G01 X102.0943 Y53.6345 
G01 X102.1197 Y53.6345 
G01 X102.1197 Y53.7660 
G01 X102.1163 Y53.7877 
G01 X102.1095 Y53.8086 
G01 X102.0995 Y53.8282 
G01 X102.0866 Y53.8460 
G01 X102.0710 Y53.8616 
G01 X102.0532 Y53.8745 
G01 X102.0336 Y53.8845 
G01 X102.0127 Y53.8913 
G01 X101.9910 Y53.8947 
G01 X101.3595 Y53.8947 
G01 X101.3595 Y53.8693 
G00 Z8.0000  
G00 X102.1594 Y47.6567 
G01 Z-0.1778 F254   
G01 X98.4006 Y47.6567 F508   
G01 X98.0692 Y47.5194 
G01 X97.8156 Y47.2658 
G01 X97.6783 Y46.9344 
G01 X97.6783 Y44.1756 
G01 X97.8156 Y43.8442 
G01 X98.0692 Y43.5906 
G01 X98.4006 Y43.4533 
G01 X102.1594 Y43.4533 
G01 X102.4908 Y43.5906 
G01 X102.7444 Y43.8442 
G01 X102.8817 Y44.1756 
G01 X102.8817 Y46.9344 
G01 X102.7444 Y47.2658 
G01 X102.4908 Y47.5194 
G01 X102.1594 Y47.6567 
G00 Z8.0000  
G00 X102.0769 Y46.8197 
G01 Z-0.1778 F254   
G01 X102.0943 Y46.7777 F508   
G01 X102.0943 Y44.3323 
G01 X102.0769 Y44.2903 
G01 X102.0447 Y44.2581 
G01 X102.0027 Y44.2407 
G01 X98.5573 Y44.2407 
G01 X98.5153 Y44.2581 
G01 X98.4831 Y44.2903 
G01 X98.4657 Y44.3323 
G01 X98.4657 Y46.7777 
G01 X98.4831 Y46.8197 
G01 X98.5153 Y46.8519 
G01 X98.5573 Y46.8693 
G01 X102.0027 Y46.8693 
G01 X102.0447 Y46.8519 
G01 X102.0769 Y46.8197 
G00 Z8.0000  
G00 X51.5484 Y64.1466 
G01 Z-0.1778 F254   
G01 X51.4110 Y64.0467 F508   
G01 X51.2596 Y63.9696 
G01 X51.0980 Y63.9171 
G01 X50.9302 Y63.8905 
G01 X48.8298 Y63.8905 
G01 X48.6620 Y63.9171 
G01 X48.5004 Y63.9696 
G01 X48.3490 Y64.0467 
G01 X48.2116 Y64.1466 
G01 X48.0914 Y64.2668 
G01 X47.9915 Y64.4042 
G01 X47.9144 Y64.5556 
G01 X47.8619 Y64.7172 
G01 X47.8353 Y64.8850 
G01 X47.8353 Y65.0550 
G01 X47.8619 Y65.2228 
G01 X47.9144 Y65.3844 
G01 X47.9915 Y65.5358 
G01 X48.0914 Y65.6732 
G01 X48.2116 Y65.7934 
G01 X48.3490 Y65.8933 
G01 X48.5004 Y65.9704 
G01 X48.6620 Y66.0229 
G01 X48.8298 Y66.0495 
G01 X50.9302 Y66.0495 
G01 X51.0980 Y66.0229 
G01 X51.2596 Y65.9704 
G01 X51.4110 Y65.8933 
G01 X51.5484 Y65.7934 
G01 X51.6686 Y65.6732 
G01 X51.7685 Y65.5358 
G01 X51.8456 Y65.3844 
G01 X51.8981 Y65.2228 
G01 X51.9247 Y65.0550 
G01 X51.9247 Y64.8850 
G01 X51.8981 Y64.7172 
G01 X51.8456 Y64.5556 
G01 X51.7685 Y64.4042 
G01 X51.6686 Y64.2668 
G01 X51.5484 Y64.1466 
G00 Z8.0000  
G00 X51.5484 Y69.2266 
G01 Z-0.1778 F254   
G01 X51.4110 Y69.1267 F508   
G01 X51.2596 Y69.0496 
G01 X51.0980 Y68.9971 
G01 X50.9302 Y68.9705 
G01 X48.8298 Y68.9705 
G01 X48.6620 Y68.9971 
G01 X48.5004 Y69.0496 
G01 X48.3490 Y69.1267 
G01 X48.2116 Y69.2266 
G01 X48.0914 Y69.3468 
G01 X47.9915 Y69.4842 
G01 X47.9144 Y69.6356 
G01 X47.8619 Y69.7972 
G01 X47.8353 Y69.9650 
G01 X47.8353 Y70.1350 
G01 X47.8619 Y70.3028 
G01 X47.9144 Y70.4644 
G01 X47.9915 Y70.6158 
G01 X48.0914 Y70.7532 
G01 X48.2116 Y70.8734 
G01 X48.3490 Y70.9733 
G01 X48.5004 Y71.0504 
G01 X48.6620 Y71.1029 
G01 X48.8298 Y71.1295 
G01 X50.9302 Y71.1295 
G01 X51.0980 Y71.1029 
G01 X51.2596 Y71.0504 
G01 X51.4110 Y70.9733 
G01 X51.5484 Y70.8734 
G01 X51.6686 Y70.7532 
G01 X51.7685 Y70.6158 
G01 X51.8456 Y70.4644 
G01 X51.8981 Y70.3028 
G01 X51.9247 Y70.1350 
G01 X51.9247 Y69.9650 
G01 X51.8981 Y69.7972 
G01 X51.8456 Y69.6356 
G01 X51.7685 Y69.4842 
G01 X51.6686 Y69.3468 
G01 X51.5484 Y69.2266 
G00 Z8.0000  
G00 X51.5484 Y74.3066 
G01 Z-0.1778 F254   
G01 X51.4110 Y74.2067 F508   
G01 X51.2596 Y74.1296 
G01 X51.0980 Y74.0771 
G01 X50.9302 Y74.0505 
G01 X48.8298 Y74.0505 
G01 X48.6620 Y74.0771 
G01 X48.5004 Y74.1296 
G01 X48.3490 Y74.2067 
G01 X48.2116 Y74.3066 
G01 X48.0914 Y74.4268 
G01 X47.9915 Y74.5642 
G01 X47.9144 Y74.7156 
G01 X47.8619 Y74.8772 
G01 X47.8353 Y75.0450 
G01 X47.8353 Y75.2150 
G01 X47.8619 Y75.3828 
G01 X47.9144 Y75.5444 
G01 X47.9915 Y75.6958 
G01 X48.0914 Y75.8332 
G01 X48.2116 Y75.9534 
G01 X48.3490 Y76.0533 
G01 X48.5004 Y76.1304 
G01 X48.6620 Y76.1829 
G01 X48.8298 Y76.2095 
G01 X50.9302 Y76.2095 
G01 X51.0980 Y76.1829 
G01 X51.2596 Y76.1304 
G01 X51.4110 Y76.0533 
G01 X51.5484 Y75.9534 
G01 X51.6686 Y75.8332 
G01 X51.7685 Y75.6958 
G01 X51.8456 Y75.5444 
G01 X51.8981 Y75.3828 
G01 X51.9247 Y75.2150 
G01 X51.9247 Y75.0450 
G01 X51.8981 Y74.8772 
G01 X51.8456 Y74.7156 
G01 X51.7685 Y74.5642 
G01 X51.6686 Y74.4268 
G01 X51.5484 Y74.3066 
G00 Z8.0000  
G00 X38.5105 Y51.7097 
G01 Z-0.1778 F254   
G01 X37.8790 Y51.7097 F508   
G01 X37.8573 Y51.7063 
G01 X37.8364 Y51.6995 
G01 X37.8168 Y51.6895 
G01 X37.7990 Y51.6766 
G01 X37.7834 Y51.6610 
G01 X37.7705 Y51.6432 
G01 X37.7605 Y51.6236 
G01 X37.7537 Y51.6027 
G01 X37.7503 Y51.5810 
G01 X37.7503 Y51.4495 
G01 X37.7757 Y51.4495 
G01 X37.7757 Y51.5927 
G01 X37.7931 Y51.6347 
G01 X37.8253 Y51.6669 
G01 X37.8673 Y51.6843 
G01 X38.5105 Y51.6843 
G01 X38.5105 Y51.7097 
G00 Z8.0000  
G00 X26.3810 Y51.6766 
G01 Z-0.1778 F254   
G01 X26.3632 Y51.6895 F508   
G01 X26.3436 Y51.6995 
G01 X26.3227 Y51.7063 
G01 X26.3010 Y51.7097 
G01 X25.6695 Y51.7097 
G01 X25.6695 Y51.6843 
G01 X26.3127 Y51.6843 
G01 X26.3547 Y51.6669 
G01 X26.3869 Y51.6347 
G01 X26.4043 Y51.5927 
G01 X26.4043 Y51.4495 
G01 X26.4297 Y51.4495 
G01 X26.4297 Y51.5810 
G01 X26.4263 Y51.6027 
G01 X26.4195 Y51.6236 
G01 X26.4095 Y51.6432 
G01 X26.3966 Y51.6610 
G01 X26.3810 Y51.6766 
G00 Z8.0000  
G00 X23.5105 Y51.6843 
G01 Z-0.1778 F254   
G01 X23.5105 Y51.7097 F508   
G01 X22.8790 Y51.7097 
G01 X22.8573 Y51.7063 
G01 X22.8364 Y51.6995 
G01 X22.8168 Y51.6895 
G01 X22.7990 Y51.6766 
G01 X22.7834 Y51.6610 
G01 X22.7705 Y51.6432 
G01 X22.7605 Y51.6236 
G01 X22.7537 Y51.6027 
G01 X22.7503 Y51.5810 
G01 X22.7503 Y51.4495 
G01 X22.7757 Y51.4495 
G01 X22.7757 Y51.5927 
G01 X22.7931 Y51.6347 
G01 X22.8253 Y51.6669 
G01 X22.8673 Y51.6843 
G01 X23.5105 Y51.6843 
G00 Z8.0000  
G00 X23.5105 Y49.0557 
G01 Z-0.1778 F254   
G01 X22.8673 Y49.0557 F508   
G01 X22.8253 Y49.0731 
G01 X22.7931 Y49.1053 
G01 X22.7757 Y49.1473 
G01 X22.7757 Y49.2905 
G01 X22.7503 Y49.2905 
G01 X22.7503 Y49.1590 
G01 X22.7537 Y49.1373 
G01 X22.7605 Y49.1164 
G01 X22.7705 Y49.0968 
G01 X22.7834 Y49.0790 
G01 X22.7990 Y49.0634 
G01 X22.8168 Y49.0505 
G01 X22.8364 Y49.0405 
G01 X22.8573 Y49.0337 
G01 X22.8790 Y49.0303 
G01 X23.5105 Y49.0303 
G01 X23.5105 Y49.0557 
G00 Z8.0000  
G00 X26.2834 Y39.9610 
G01 Z-0.1778 F254   
G01 X26.2705 Y39.9432 F508   
G01 X26.2605 Y39.9236 
G01 X26.2537 Y39.9027 
G01 X26.2503 Y39.8810 
G01 X26.2503 Y39.7495 
G01 X26.2757 Y39.7495 
G01 X26.2757 Y39.8927 
G01 X26.2931 Y39.9347 
G01 X26.3253 Y39.9669 
G01 X26.3673 Y39.9843 
G01 X27.0105 Y39.9843 
G01 X27.0105 Y40.0097 
G01 X26.3790 Y40.0097 
G01 X26.3573 Y40.0063 
G01 X26.3364 Y39.9995 
G01 X26.3168 Y39.9895 
G01 X26.2990 Y39.9766 
G01 X26.2834 Y39.9610 
G00 Z8.0000  
G00 X26.2757 Y37.5905 
G01 Z-0.1778 F254   
G01 X26.2503 Y37.5905 F508   
G01 X26.2503 Y37.4590 
G01 X26.2537 Y37.4373 
G01 X26.2605 Y37.4164 
G01 X26.2705 Y37.3968 
G01 X26.2834 Y37.3790 
G01 X26.2990 Y37.3634 
G01 X26.3168 Y37.3505 
G01 X26.3364 Y37.3405 
G01 X26.3573 Y37.3337 
G01 X26.3790 Y37.3303 
G01 X27.0105 Y37.3303 
G01 X27.0105 Y37.3557 
G01 X26.3673 Y37.3557 
G01 X26.3253 Y37.3731 
G01 X26.2931 Y37.4053 
G01 X26.2757 Y37.4473 
G01 X26.2757 Y37.5905 
G00 Z8.0000  
G00 X29.1695 Y37.3557 
G01 Z-0.1778 F254   
G01 X29.1695 Y37.3303 F508   
G01 X29.8010 Y37.3303 
G01 X29.8227 Y37.3337 
G01 X29.8436 Y37.3405 
G01 X29.8632 Y37.3505 
G01 X29.8810 Y37.3634 
G01 X29.8966 Y37.3790 
G01 X29.9095 Y37.3968 
G01 X29.9195 Y37.4164 
G01 X29.9263 Y37.4373 
G01 X29.9297 Y37.4590 
G01 X29.9297 Y37.5905 
G01 X29.9043 Y37.5905 
G01 X29.9043 Y37.4473 
G01 X29.8869 Y37.4053 
G01 X29.8547 Y37.3731 
G01 X29.8127 Y37.3557 
G01 X29.1695 Y37.3557 
G00 Z8.0000  
G00 X29.1695 Y39.9843 
G01 Z-0.1778 F254   
G01 X29.8127 Y39.9843 F508   
G01 X29.8547 Y39.9669 
G01 X29.8869 Y39.9347 
G01 X29.9043 Y39.8927 
G01 X29.9043 Y39.7495 
G01 X29.9297 Y39.7495 
G01 X29.9297 Y39.8810 
G01 X29.9263 Y39.9027 
G01 X29.9195 Y39.9236 
G01 X29.9095 Y39.9432 
G01 X29.8966 Y39.9610 
G01 X29.8810 Y39.9766 
G01 X29.8632 Y39.9895 
G01 X29.8436 Y39.9995 
G01 X29.8227 Y40.0063 
G01 X29.8010 Y40.0097 
G01 X29.1695 Y40.0097 
G01 X29.1695 Y39.9843 
G00 Z8.0000  
G00 X3.2166  Y49.2790 
G01 Z-0.1778 F254   
G01 X3.2295  Y49.2968 F508   
G01 X3.2395  Y49.3164 
G01 X3.2463  Y49.3373 
G01 X3.2497  Y49.3590 
G01 X3.2497  Y49.4905 
G01 X3.2243  Y49.4905 
G01 X3.2243  Y49.3473 
G01 X3.2069  Y49.3053 
G01 X3.1747  Y49.2731 
G01 X3.1327  Y49.2557 
G01 X2.4895  Y49.2557 
G01 X2.4895  Y49.2303 
G01 X3.1210  Y49.2303 
G01 X3.1427  Y49.2337 
G01 X3.1636  Y49.2405 
G01 X3.1832  Y49.2505 
G01 X3.2010  Y49.2634 
G01 X3.2166  Y49.2790 
G00 Z8.0000  
G00 X3.2243  Y51.6495 
G01 Z-0.1778 F254   
G01 X3.2497  Y51.6495 F508   
G01 X3.2497  Y51.7810 
G01 X3.2463  Y51.8027 
G01 X3.2395  Y51.8236 
G01 X3.2295  Y51.8432 
G01 X3.2166  Y51.8610 
G01 X3.2010  Y51.8766 
G01 X3.1832  Y51.8895 
G01 X3.1636  Y51.8995 
G01 X3.1427  Y51.9063 
G01 X3.1210  Y51.9097 
G01 X2.4895  Y51.9097 
G01 X2.4895  Y51.8843 
G01 X3.1327  Y51.8843 
G01 X3.1747  Y51.8669 
G01 X3.2069  Y51.8347 
G01 X3.2243  Y51.7927 
G01 X3.2243  Y51.6495 
G00 Z8.0000  
G00 X0.3305  Y51.8843 
G01 Z-0.1778 F254   
G01 X0.3305  Y51.9097 F508   
G01 X-0.3010 Y51.9097 
G01 X-0.3227 Y51.9063 
G01 X-0.3436 Y51.8995 
G01 X-0.3632 Y51.8895 
G01 X-0.3810 Y51.8766 
G01 X-0.3966 Y51.8610 
G01 X-0.4095 Y51.8432 
G01 X-0.4195 Y51.8236 
G01 X-0.4263 Y51.8027 
G01 X-0.4297 Y51.7810 
G01 X-0.4297 Y51.6495 
G01 X-0.4043 Y51.6495 
G01 X-0.4043 Y51.7927 
G01 X-0.3869 Y51.8347 
G01 X-0.3547 Y51.8669 
G01 X-0.3127 Y51.8843 
G01 X0.3305  Y51.8843 
G00 Z8.0000  
G00 X0.3305  Y49.2557 
G01 Z-0.1778 F254   
G01 X-0.3127 Y49.2557 F508   
G01 X-0.3547 Y49.2731 
G01 X-0.3869 Y49.3053 
G01 X-0.4043 Y49.3473 
G01 X-0.4043 Y49.4905 
G01 X-0.4297 Y49.4905 
G01 X-0.4297 Y49.3590 
G01 X-0.4263 Y49.3373 
G01 X-0.4195 Y49.3164 
G01 X-0.4095 Y49.2968 
G01 X-0.3966 Y49.2790 
G01 X-0.3810 Y49.2634 
G01 X-0.3632 Y49.2505 
G01 X-0.3436 Y49.2405 
G01 X-0.3227 Y49.2337 
G01 X-0.3010 Y49.2303 
G01 X0.3305  Y49.2303 
G01 X0.3305  Y49.2557 
G00 Z8.0000  
G00 X-0.4694 Y55.4683 
G01 Z-0.1778 F254   
G01 X3.2894  Y55.4683 F508   
G01 X3.6208  Y55.6056 
G01 X3.8744  Y55.8592 
G01 X4.0117  Y56.1906 
G01 X4.0117  Y58.9494 
G01 X3.8744  Y59.2808 
G01 X3.6208  Y59.5344 
G01 X3.2894  Y59.6717 
G01 X-0.4694 Y59.6717 
G01 X-0.8008 Y59.5344 
G01 X-1.0544 Y59.2808 
G01 X-1.1917 Y58.9494 
G01 X-1.1917 Y56.1906 
G01 X-1.0544 Y55.8592 
G01 X-0.8008 Y55.6056 
G01 X-0.4694 Y55.4683 
G00 Z8.0000  
G00 X-0.3869 Y56.3053 
G01 Z-0.1778 F254   
G01 X-0.4043 Y56.3473 F508   
G01 X-0.4043 Y58.7927 
G01 X-0.3869 Y58.8347 
G01 X-0.3547 Y58.8669 
G01 X-0.3127 Y58.8843 
G01 X3.1327  Y58.8843 
G01 X3.1747  Y58.8669 
G01 X3.2069  Y58.8347 
G01 X3.2243  Y58.7927 
G01 X3.2243  Y56.3473 
G01 X3.2069  Y56.3053 
G01 X3.1747  Y56.2731 
G01 X3.1327  Y56.2557 
G01 X-0.3127 Y56.2557 
G01 X-0.3547 Y56.2731 
G01 X-0.3869 Y56.3053 
G00 Z8.0000  
G00 X0.9403  Y22.3761 
G01 Z-0.1778 F254   
G01 X-1.6358 Y24.3744 F508   
G01 X-1.6862 Y24.4092 
G01 X-1.7107 Y24.4325 
G01 X-1.7374 Y24.4532 
G01 X-1.7794 Y24.4979 
G01 X-4.1400 Y26.7466 
G01 X-4.1867 Y26.7863 
G01 X-4.2086 Y26.8120 
G01 X-4.2331 Y26.8353 
G01 X-4.2703 Y26.8840 
G01 X-6.3914 Y29.3600 
G01 X-6.4338 Y29.4042 
G01 X-6.4530 Y29.4320 
G01 X-6.4750 Y29.4576 
G01 X-6.5071 Y29.5099 
G01 X-8.3668 Y32.1877 
G01 X-8.4045 Y32.2360 
G01 X-8.4209 Y32.2656 
G01 X-8.4401 Y32.2933 
G01 X-8.4668 Y32.3486 
G01 X-10.0460 Y35.2008 
G01 X-10.0787 Y35.2527 
G01 X-10.0920 Y35.2837 
G01 X-10.1083 Y35.3133 
G01 X-10.1292 Y35.3709 
G01 X-11.4118 Y38.3683 
G01 X-11.4390 Y38.4232 
G01 X-11.4491 Y38.4555 
G01 X-11.4624 Y38.4865 
G01 X-11.4774 Y38.5459 
G01 X-12.4501 Y41.6577 
G01 X-12.4717 Y41.7151 
G01 X-12.4784 Y41.7482 
G01 X-12.4885 Y41.7804 
G01 X-12.4974 Y41.8411 
G01 X-13.1503 Y45.0353 
G01 X-13.1660 Y45.0946 
G01 X-13.1693 Y45.1282 
G01 X-13.1761 Y45.1613 
G01 X-13.1788 Y45.2225 
G01 X-13.5053 Y48.4664 
G01 X-13.5148 Y48.5270 
G01 X-13.5147 Y48.5608 
G01 X-13.5181 Y48.5943 
G01 X-13.5146 Y48.6555 
G01 X-13.5112 Y51.9158 
G01 X-13.5146 Y51.9770 
G01 X-13.5111 Y52.0106 
G01 X-13.5111 Y52.0444 
G01 X-13.5014 Y52.1049 
G01 X-13.1682 Y55.3481 
G01 X-13.1653 Y55.4094 
G01 X-13.1585 Y55.4425 
G01 X-13.1551 Y55.4760 
G01 X-13.1393 Y55.5353 
G01 X-12.4797 Y58.7281 
G01 X-12.4706 Y58.7888 
G01 X-12.4605 Y58.8210 
G01 X-12.4537 Y58.8541 
G01 X-12.4320 Y58.9114 
G01 X-11.4528 Y62.0211 
G01 X-11.4376 Y62.0806 
G01 X-11.4243 Y62.1116 
G01 X-11.4141 Y62.1438 
G01 X-11.3868 Y62.1987 
G01 X-10.0980 Y65.1934 
G01 X-10.0769 Y65.2509 
G01 X-10.0605 Y65.2804 
G01 X-10.0471 Y65.3114 
G01 X-10.0144 Y65.3633 
G01 X-8.4292 Y68.2122 
G01 X-8.4024 Y68.2674 
G01 X-8.3831 Y68.2951 
G01 X-8.3667 Y68.3246 
G01 X-8.3288 Y68.3728 
G01 X-6.4635 Y71.0468 
G01 X-6.4313 Y71.0989 
G01 X-6.4093 Y71.1245 
G01 X-6.3900 Y71.1522 
G01 X-6.3474 Y71.1965 
G01 X-4.2212 Y73.6679 
G01 X-4.1839 Y73.7166 
G01 X-4.1594 Y73.7398 
G01 X-4.1374 Y73.7654 
G01 X-4.0906 Y73.8051 
G01 X-1.7252 Y76.0488 
G01 X-1.6832 Y76.0934 
G01 X-1.6565 Y76.1140 
G01 X-1.6320 Y76.1373 
G01 X-1.5814 Y76.1720 
G01 X0.9867  Y78.1556 
